RL2-companion-robot/Jetson_GYM/data/deploy_log_2026-05-10_15-52-24.csv
timestamp_local,record_type,event_type,event_msg,q_exp_0,q_exp_1,q_exp_2,q_exp_3,q_exp_4,q_exp_5,q_exp_6,q_exp_7,q_exp_8,q_exp_9,dq_exp_0,dq_exp_1,dq_exp_2,dq_exp_3,dq_exp_4,dq_exp_5,dq_exp_6,dq_exp_7,dq_exp_8,dq_exp_9,tau_exp_0,tau_exp_1,tau_exp_2,tau_exp_3,tau_exp_4,tau_exp_5,tau_exp_6,tau_exp_7,tau_exp_8,tau_exp_9,q_0,q_1,q_2,q_3,q_4,q_5,q_6,q_7,q_8,q_9,dq_0,dq_1,dq_2,dq_3,dq_4,dq_5,dq_6,dq_7,dq_8,dq_9,tau_0,tau_1,tau_2,tau_3,tau_4,tau_5,tau_6,tau_7,tau_8,tau_9,omega_x,omega_y,omega_z,acc_x,acc_y,acc_z,raw_roll,raw_pitch,raw_yaw,roll,pitch,yaw,quat_w,quat_x,quat_y,quat_z
2026-05-10 15:52:35.399243,inference,,,-0.0815043,-0.018854,0.424175,1.5215,0.938511,0.0344915,-0.161145,-0.658042,-1.53529,-0.908797,0,0,0,0,0,0,0,0,0,0,0,0,0,0,0,0,0,0,0,0,-0.0127792,0.136758,0.174907,1.02331,0.912298,-0.000953674,-0.139429,-0.175288,-1.04505,-0.916495,0.021286,-0.000152588,-0.000686646,-0.000686646,-0.000686646,-0.0226593,-0.000152588,-0.000686646,-0.000686646,-0.000686646,0.0701308,-1.64839,-0.0979626,0.421698,-0.0411994,-0.14081,1.66075,-0.0491345,-0.404486,-0.0411994,-0.000532632,-0.000532632,-0.000532632,-0.0215478,-0.0215478,9.79962,-0.00244478,0.00177366,-0.00158192,0.000272913,0.000910143,-5.7827e-06,0.999969,-0.00123596,0.000930786,-0.000778198
2026-05-10 15:52:35.405944,inference,,,-0.0758338,0.000531442,0.855225,1.5215,0.96012,-0.086724,-0.161145,-0.978263,-1.53529,-0.908055,0,0,0,0,0,0,0,0,0,0,0,0,0,0,0,0,0,0,0,0,-0.0127792,0.136758,0.174907,1.02293,0.912298,-0.000953674,-0.139429,-0.175288,-1.04505,-0.916114,-0.000686646,-0.000152588,-0.000686646,-0.0226593,-0.000686646,0.021286,-0.000152588,-0.044632,-0.000686646,0.021286,0.0701308,-1.64839,-0.0979626,0.421698,-0.0411994,-0.134951,1.66075,-0.0393689,-0.398627,-0.0411994,-0.000532632,-0.000532632,-0.000532632,-0.0215478,-0.0215478,9.79962,-0.00244478,0.00177366,-0.00158192,0.000272913,0.000910143,-5.7827e-06,0.999969,-0.00123596,0.000930786,-0.000778198
2026-05-10 15:52:35.412591,inference,,,0.00831868,0.039326,1.0545,1.5215,0.952649,-0.121735,-0.161145,-0.998248,-1.53529,-0.897012,0,0,0,0,0,0,0,0,0,0,0,0,0,0,0,0,0,0,0,0,-0.0127792,0.136758,0.175288,1.02293,0.912298,-0.000953674,-0.139429,-0.175288,-1.04505,-0.916495,-0.0226593,-0.000152588,0.021286,-0.0226593,-0.000686646,0.021286,-0.000152588,0.021286,0.021286,-0.0226593,0.0759902,-1.64839,-0.0979626,0.415838,-0.0470588,-0.134951,1.66075,-0.0296021,-0.404486,-0.0470588,-0.000532632,-0.000532632,-0.000532632,-0.0215478,-0.0215478,9.79962,-0.00244478,0.00177366,-0.00158192,0.000272913,0.000910143,-5.7827e-06,0.999969,-0.00123596,0.000930786,-0.000778198
2026-05-10 15:52:35.419229,inference,,,0.0354517,-0.018854,1.03936,1.5215,0.967232,-0.080969,-0.161145,-0.962075,-1.53529,-0.949688,0,0,0,0,0,0,0,0,0,0,0,0,0,0,0,0,0,0,0,0,-0.0127792,0.136758,0.174907,1.02293,0.912298,-0.000953674,-0.139429,-0.175288,-1.04505,-0.916495,-0.000686646,-0.000152588,-0.044632,-0.000686646,0.021286,-0.000686646,-0.000152588,-0.0226593,0.021286,-0.000686646,0.0759902,-1.64839,-0.0979626,0.415838,-0.0470588,-0.134951,1.67393,-0.0296021,-0.404486,-0.0411994,-0.000532632,-0.000532632,-0.000532632,-0.0215478,-0.0215478,9.79962,-0.00244478,0.00177366,-0.00158192,0.000272913,0.000910143,-5.7827e-06,0.999969,-0.00123596,0.000930786,-0.000778198
2026-05-10 15:52:35.425848,inference,,,-0.00831215,-0.018854,0.888244,1.5215,0.970728,-0.0513465,-0.161145,-1.01031,-1.53529,-1.05734,0,0,0,0,0,0,0,0,0,0,0,0,0,0,0,0,0,0,0,0,-0.0127792,0.136758,0.174907,1.02331,0.91268,-0.000953674,-0.139429,-0.175288,-1.04505,-0.916495,-0.0226593,-0.000152588,-0.000686646,-0.000686646,-0.000686646,-0.0226593,0.00473022,-0.000686646,-0.000686646,-0.000686646,0.0759902,-1.64839,-0.088197,0.415838,-0.0470588,-0.134951,1.67393,-0.0393689,-0.410346,-0.0411994,-0.000532632,-0.000532632,-0.000532632,-0.0215478,-0.0215478,9.79962,-0.00244478,0.00177366,-0.00158192,0.000272913,0.000910143,-5.7827e-06,0.999969,-0.00123596,0.000930786,-0.000778198
2026-05-10 15:52:35.432474,inference,,,-0.0452111,-0.018854,0.767628,1.5215,0.960235,-0.0438678,-0.161145,-0.997037,-1.53529,-1.11955,0,0,0,0,0,0,0,0,0,0,0,0,0,0,0,0,0,0,0,0,-0.0127792,0.136758,0.175288,1.02331,0.912298,-0.000953674,-0.139429,-0.175288,-1.04505,-0.916495,0.021286,-0.000152588,0.021286,-0.000686646,-0.000686646,-0.000686646,-0.000152588,-0.000686646,0.021286,-0.000686646,0.0818496,-1.64839,-0.088197,0.415838,-0.0470588,-0.134951,1.67393,-0.0491345,-0.410346,-0.0353401,-0.000532632,-0.000532632,-0.000532632,-0.0215478,-0.0215478,9.79962,-0.00244478,0.00177366,-0.00158192,0.000272913,0.000910143,-5.7827e-06,0.999969,-0.00123596,0.000930786,-0.000778198
2026-05-10 15:52:35.439098,inference,,,-0.0600808,-0.018854,0.71488,1.5215,0.957984,-0.045038,-0.161145,-0.948445,-1.53529,-1.14866,0,0,0,0,0,0,0,0,0,0,0,0,0,0,0,0,0,0,0,0,-0.0127792,0.136758,0.174907,1.02331,0.912298,-0.000953674,-0.139429,-0.175288,-1.04505,-0.916495,-0.000686646,-0.0050354,-0.0226593,0.021286,-0.000686646,-0.000686646,-0.000152588,-0.000686646,-0.000686646,-0.000686646,0.0759902,-1.64839,-0.088197,0.421698,-0.0411994,-0.129092,1.67393,-0.0491345,-0.410346,-0.0411994,-0.000532632,-0.000532632,-0.000532632,-0.0215478,-0.0215478,9.79962,-0.00244478,0.00177366,-0.00158192,0.000272913,0.000910143,-5.7827e-06,0.999969,-0.00123596,0.000930786,-0.000778198
2026-05-10 15:52:35.445716,inference,,,-0.0661312,-0.018854,0.69871,1.5215,0.961216,-0.0417619,-0.161145,-0.906182,-1.53529,-1.15742,0,0,0,0,0,0,0,0,0,0,0,0,0,0,0,0,0,0,0,0,-0.0127792,0.136758,0.174907,1.02331,0.912298,-0.000953674,-0.139429,-0.175288,-1.04505,-0.916495,0.021286,-0.000152588,-0.0226593,-0.000686646,-0.000686646,-0.000686646,-0.000152588,-0.000686646,-0.0226593,-0.000686646,0.0818496,-1.64839,-0.088197,0.415838,-0.0411994,-0.134951,1.67393,-0.0491345,-0.404486,-0.0411994,-0.000532632,-0.000532632,-0.000532632,-0.0215478,-0.0215478,9.79962,-0.00244478,0.00177366,-0.00158192,0.000272913,0.000910143,-5.7827e-06,0.999969,-0.00123596,0.000930786,-0.000778198
2026-05-10 15:52:35.452355,inference,,,-0.0665789,-0.018854,0.684589,1.5215,0.959456,-0.0343592,-0.161145,-0.870407,-1.53529,-1.14897,0,0,0,0,0,0,0,0,0,0,0,0,0,0,0,0,0,0,0,0,-0.0127792,0.136758,0.175288,1.02331,0.912298,-0.000953674,-0.139429,-0.175288,-1.04505,-0.916495,-0.0226593,-0.000152588,-0.000686646,-0.0226593,-0.0226593,-0.0226593,-0.000152588,0.021286,-0.0226593,-0.000686646,0.0759902,-1.64839,-0.088197,0.421698,-0.0470588,-0.134951,1.67393,-0.0491345,-0.404486,-0.0411994,-0.000532632,-0.000532632,-0.000532632,-0.0215478,-0.0215478,9.79962,-0.00244478,0.00177366,-0.00158192,0.000272913,0.000910143,-5.7827e-06,0.999969,-0.00123596,0.000930786,-0.000778198
2026-05-10 15:52:35.459025,inference,,,-0.0693039,-0.018854,0.67142,1.5215,0.9603,-0.0276556,-0.161145,-0.839687,-1.53529,-1.14292,0,0,0,0,0,0,0,0,0,0,0,0,0,0,0,0,0,0,0,0,-0.0127792,0.136758,0.174907,1.02331,0.912298,-0.000953674,-0.139429,-0.175288,-1.04505,-0.916114,-0.000686646,-0.000152588,-0.000686646,-0.000686646,0.021286,-0.000686646,-0.0050354,-0.000686646,-0.000686646,-0.000686646,0.0701308,-1.64839,-0.088197,0.421698,-0.0470588,-0.134951,1.67393,-0.0491345,-0.398627,-0.0411994,-0.000532632,-0.000532632,-0.000532632,-0.0215478,-0.0215478,9.79962,-0.00244478,0.00177366,-0.00158192,0.000272913,0.000910143,-5.7827e-06,0.999969,-0.00123596,0.000930786,-0.000778198
2026-05-10 15:52:35.465639,inference,,,-0.0762472,-0.018854,0.664494,1.5215,0.965552,-0.0228307,-0.161145,-0.810883,-1.53529,-1.14487,0,0,0,0,0,0,0,0,0,0,0,0,0,0,0,0,0,0,0,0,-0.0127792,0.136758,0.174907,1.02331,0.91268,-0.000572205,-0.139429,-0.175288,-1.04505,-0.916495,-0.0226593,-0.000152588,0.021286,-0.000686646,-0.0226593,-0.000686646,0.00473022,-0.000686646,-0.000686646,-0.0226593,0.0759902,-1.64839,-0.088197,0.421698,-0.0470588,-0.134951,1.67393,-0.0491345,-0.404486,-0.0411994,-0.000532632,-0.000532632,-0.000532632,-0.0215478,-0.0215478,9.79962,-0.00244478,0.00177366,-0.00158192,0.000272913,0.000910143,-5.7827e-06,0.999969,-0.00123596,0.000930786,-0.000778198
2026-05-10 15:52:35.472267,inference,,,-0.0819597,-0.018854,0.662632,1.5215,0.970793,-0.0181492,-0.161145,-0.78343,-1.53529,-1.14922,0,0,0,0,0,0,0,0,0,0,0,0,0,0,0,0,0,0,0,0,-0.0127792,0.136758,0.174907,1.02331,0.912298,-0.000953674,-0.139429,-0.175288,-1.04505,-0.916114,0.021286,-0.000152588,0.021286,0.021286,-0.000686646,0.021286,-0.000152588,-0.000686646,-0.000686646,0.021286,0.0818496,-1.64839,-0.088197,0.415838,-0.0411994,-0.134951,1.67393,-0.0491345,-0.404486,-0.0411994,-0.000532632,-0.000532632,-0.000532632,-0.0215478,-0.0215478,9.79962,-0.00244478,0.00177366,-0.00158192,0.000272913,0.000910143,-5.7827e-06,0.999969,-0.00123596,0.000930786,-0.000778198
2026-05-10 15:52:35.478918,inference,,,-0.085749,-0.018854,0.666511,1.5215,0.975599,-0.0140727,-0.161145,-0.752229,-1.53529,-1.15124,0,0,0,0,0,0,0,0,0,0,0,0,0,0,0,0,0,0,0,0,-0.0127792,0.136758,0.174907,1.02293,0.912298,-0.000953674,-0.139429,-0.175288,-1.04505,-0.916114,-0.000686646,-0.000152588,-0.000686646,-0.000686646,-0.000686646,-0.000686646,-0.0050354,-0.000686646,-0.000686646,-0.000686646,0.0818496,-1.64839,-0.088197,0.415838,-0.0411994,-0.134951,1.66075,-0.0491345,-0.404486,-0.0411994,-0.000532632,-0.000532632,-0.000532632,-0.0215478,-0.0215478,9.79962,-0.00244478,0.00177366,-0.00158192,0.000272913,0.000910143,-5.7827e-06,0.999969,-0.00123596,0.000930786,-0.000778198
2026-05-10 15:52:35.485534,inference,,,-0.0888759,-0.018854,0.671741,1.5215,0.980027,-0.00992153,-0.161145,-0.717549,-1.53529,-1.153,0,0,0,0,0,0,0,0,0,0,0,0,0,0,0,0,0,0,0,0,-0.0127792,0.136758,0.174907,1.02331,0.912298,-0.000953674,-0.139429,-0.175288,-1.04505,-0.916495,0.021286,-0.000152588,-0.0226593,-0.0226593,0.021286,-0.0226593,-0.000152588,-0.0226593,-0.000686646,-0.000686646,0.0759902,-1.64839,-0.0979626,0.415838,-0.0411994,-0.14081,1.67393,-0.0491345,-0.404486,-0.0411994,-0.000532632,-0.000532632,-0.000532632,-0.0215478,-0.0215478,9.79962,-0.00244478,0.00177366,-0.00158192,0.000272913,0.000910143,-5.7827e-06,0.999969,-0.00123596,0.000930786,-0.000778198
2026-05-10 15:52:35.492172,inference,,,-0.0935053,-0.018854,0.674767,1.5215,0.983374,-0.0042286,-0.161145,-0.683867,-1.53529,-1.15619,0,0,0,0,0,0,0,0,0,0,0,0,0,0,0,0,0,0,0,0,-0.0127792,0.136758,0.174907,1.02331,0.91268,-0.000953674,-0.139429,-0.175288,-1.04505,-0.916495,-0.000686646,-0.000152588,-0.000686646,0.0432587,-0.000686646,-0.0226593,-0.000152588,-0.000686646,-0.0226593,-0.000686646,0.0701308,-1.64839,-0.088197,0.421698,-0.0411994,-0.134951,1.67393,-0.0393689,-0.410346,-0.0411994,-0.000532632,-0.000532632,-0.000532632,-0.0215478,-0.0215478,9.79962,-0.00244478,0.00177366,-0.00158192,0.000272913,0.000910143,-5.7827e-06,0.999969,-0.00123596,0.000930786,-0.000778198
2026-05-10 15:52:35.498804,inference,,,-0.0986588,-0.018854,0.676812,1.5215,0.98524,0.00358507,-0.161145,-0.652236,-1.53529,-1.16005,0,0,0,0,0,0,0,0,0,0,0,0,0,0,0,0,0,0,0,0,-0.0127792,0.136758,0.174907,1.02293,0.912298,-0.000953674,-0.139429,-0.175288,-1.04505,-0.916114,-0.000686646,-0.0050354,-0.000686646,-0.0226593,-0.000686646,-0.000686646,-0.000152588,-0.000686646,-0.000686646,0.021286,0.0642715,-1.64839,-0.0979626,0.415838,-0.0470588,-0.134951,1.66075,-0.0393689,-0.404486,-0.0411994,-0.000532632,-0.000532632,-0.000532632,-0.0215478,-0.0215478,9.79962,-0.00244478,0.00177366,-0.00158192,0.000272913,0.000910143,-5.7827e-06,0.999969,-0.00123596,0.000930786,-0.000778198
2026-05-10 15:52:35.505442,inference,,,-0.10378,-0.018854,0.679101,1.5215,0.986305,0.0132071,-0.161145,-0.621051,-1.53529,-1.16282,0,0,0,0,0,0,0,0,0,0,0,0,0,0,0,0,0,0,0,0,-0.0127792,0.136758,0.174907,1.02331,0.912298,-0.000953674,-0.139429,-0.175288,-1.04505,-0.916495,-0.0226593,-0.000152588,-0.0226593,-0.000686646,-0.000686646,-0.0226593,-0.000152588,-0.000686646,0.021286,-0.0226593,0.0759902,-1.64839,-0.0979626,0.421698,-0.0470588,-0.134951,1.67393,-0.0393689,-0.410346,-0.0411994,-0.000532632,-0.000532632,-0.000532632,-0.0215478,-0.0215478,9.79962,-0.00244478,0.00177366,-0.00158192,0.000272913,0.000910143,-5.7827e-06,0.999969,-0.00123596,0.000930786,-0.000778198
2026-05-10 15:52:35.512166,inference,,,-0.107846,-0.018854,0.679795,1.5215,0.986218,0.0256938,-0.161145,-0.592825,-1.53529,-1.16512,0,0,0,0,0,0,0,0,0,0,0,0,0,0,0,0,0,0,0,0,-0.0127792,0.136758,0.174907,1.02331,0.912298,-0.000953674,-0.139429,-0.175288,-1.04505,-0.916495,-0.0226593,-0.000152588,0.021286,0.021286,-0.0226593,-0.000686646,-0.000152588,-0.000686646,-0.000686646,0.021286,0.0818496,-1.66157,-0.0979626,0.421698,-0.0470588,-0.134951,1.66075,-0.0491345,-0.410346,-0.0411994,-0.000532632,-0.000532632,-0.000532632,-0.0215478,-0.0215478,9.79962,-0.00244478,0.00177366,-0.00158192,0.000272913,0.000910143,-5.7827e-06,0.999969,-0.00123596,0.000930786,-0.000778198
2026-05-10 15:52:35.518809,inference,,,-0.110305,-0.018854,0.678325,1.5215,0.984901,0.0396377,-0.161145,-0.570939,-1.53529,-1.16792,0,0,0,0,0,0,0,0,0,0,0,0,0,0,0,0,0,0,0,0,-0.0127792,0.136758,0.174907,1.02331,0.91268,-0.000953674,-0.139429,-0.175288,-1.04505,-0.916495,-0.044632,-0.000152588,-0.000686646,-0.000686646,-0.000686646,-0.000686646,-0.000152588,-0.0226593,-0.000686646,-0.0226593,0.0818496,-1.64839,-0.0979626,0.427558,-0.0470588,-0.134951,1.67393,-0.0491345,-0.410346,-0.0470588,-0.000532632,-0.000532632,-0.000532632,-0.0215478,-0.0215478,9.79962,-0.00244478,0.00177366,-0.00158192,0.000272913,0.000910143,-5.7827e-06,0.999969,-0.00123596,0.000930786,-0.000778198
2026-05-10 15:52:35.525441,inference,,,-0.111303,-0.018854,0.674635,1.5215,0.982741,0.0536271,-0.161145,-0.555664,-1.53529,-1.17172,0,0,0,0,0,0,0,0,0,0,0,0,0,0,0,0,0,0,0,0,-0.0127792,0.136758,0.174907,1.02331,0.912298,-0.000953674,-0.139429,-0.175288,-1.04543,-0.916495,-0.000686646,-0.000152588,0.021286,0.021286,-0.000686646,-0.0226593,-0.000152588,0.021286,-0.000686646,-0.0226593,0.0759902,-1.64839,-0.0979626,0.415838,-0.0470588,-0.134951,1.67393,-0.0393689,-0.410346,-0.0353401,-0.000532632,-0.000532632,-0.000532632,-0.0215478,-0.0215478,9.79962,-0.00244478,0.00177366,-0.00158192,0.000272913,0.000910143,-5.7827e-06,0.999969,-0.00123596,0.000930786,-0.000778198
2026-05-10 15:52:35.532072,inference,,,-0.110706,-0.018854,0.668843,1.5215,0.979744,0.0673045,-0.161145,-0.544862,-1.53529,-1.17567,0,0,0,0,0,0,0,0,0,0,0,0,0,0,0,0,0,0,0,0,-0.0127792,0.136758,0.174907,1.02293,0.91268,-0.000953674,-0.139429,-0.175288,-1.04505,-0.916495,-0.000686646,-0.000152588,-0.000686646,-0.000686646,-0.000686646,-0.000686646,0.00473022,0.021286,-0.0226593,-0.000686646,0.0701308,-1.64839,-0.088197,0.415838,-0.0470588,-0.134951,1.67393,-0.0393689,-0.404486,-0.0353401,-0.000532632,-0.000532632,-0.000532632,-0.0215478,-0.0215478,9.79962,-0.00244478,0.00177366,-0.00158192,0.000272913,0.000910143,-5.7827e-06,0.999969,-0.00123596,0.000930786,-0.000778198
2026-05-10 15:52:35.538708,inference,,,-0.109039,-0.018854,0.661667,1.5215,0.975945,0.0799402,-0.161145,-0.536825,-1.53529,-1.17877,0,0,0,0,0,0,0,0,0,0,0,0,0,0,0,0,0,0,0,0,-0.0127792,0.136758,0.174907,1.02331,0.91268,-0.000953674,-0.139429,-0.175288,-1.04505,-0.916495,-0.000686646,-0.000152588,-0.000686646,-0.000686646,0.021286,-0.000686646,-0.0050354,-0.0226593,0.021286,-0.0226593,0.0818496,-1.64839,-0.088197,0.421698,-0.0470588,-0.134951,1.66075,-0.0491345,-0.404486,-0.0411994,-0.000532632,-0.000532632,-0.000532632,-0.0215478,-0.0215478,9.79962,-0.00244478,0.00177366,-0.00158192,0.000272913,0.000910143,-5.7827e-06,0.999969,-0.00123596,0.000930786,-0.000778198
2026-05-10 15:52:35.545362,inference,,,-0.107836,-0.018854,0.65385,1.5215,0.972244,0.0911983,-0.161145,-0.530273,-1.53529,-1.18107,0,0,0,0,0,0,0,0,0,0,0,0,0,0,0,0,0,0,0,0,-0.0127792,0.136758,0.174907,1.02331,0.912298,-0.000953674,-0.139429,-0.175288,-1.04505,-0.916495,-0.000686646,-0.0050354,0.021286,-0.000686646,-0.0226593,-0.000686646,-0.000152588,-0.000686646,-0.000686646,-0.0226593,0.087709,-1.64839,-0.0979626,0.421698,-0.0470588,-0.134951,1.66075,-0.0491345,-0.404486,-0.0411994,-0.000532632,-0.000532632,-0.000532632,-0.0215478,-0.0215478,9.79962,-0.00244478,0.00177366,-0.00158192,0.000272913,0.000910143,-5.7827e-06,0.999969,-0.00123596,0.000930786,-0.000778198
2026-05-10 15:52:35.552003,inference,,,-0.106851,-0.018854,0.645645,1.5215,0.968907,0.101173,-0.161145,-0.525534,-1.53529,-1.18318,0,0,0,0,0,0,0,0,0,0,0,0,0,0,0,0,0,0,0,0,-0.0127792,0.136758,0.174907,1.02331,0.912298,-0.000572205,-0.139429,-0.175288,-1.04505,-0.916495,-0.0226593,-0.000152588,-0.000686646,-0.0226593,-0.000686646,-0.000686646,-0.000152588,0.021286,-0.000686646,-0.000686646,0.0818496,-1.64839,-0.0979626,0.415838,-0.0411994,-0.129092,1.67393,-0.0491345,-0.410346,-0.0411994,-0.000532632,-0.000532632,-0.000532632,-0.0215478,-0.0215478,9.79962,-0.00244478,0.00177366,-0.00158192,0.000272913,0.000910143,-5.7827e-06,0.999969,-0.00123596,0.000930786,-0.000778198
2026-05-10 15:52:35.558643,inference,,,-0.106004,-0.018854,0.637677,1.5215,0.966109,0.110462,-0.161145,-0.522097,-1.53529,-1.18506,0,0,0,0,0,0,0,0,0,0,0,0,0,0,0,0,0,0,0,0,-0.0127792,0.136758,0.174907,1.02331,0.91268,-0.000953674,-0.139429,-0.175288,-1.04505,-0.916495,0.021286,-0.000152588,0.021286,0.021286,-0.000686646,0.021286,-0.000152588,-0.000686646,-0.000686646,0.021286,0.0642715,-1.64839,-0.088197,0.421698,-0.0411994,-0.134951,1.67393,-0.0393689,-0.404486,-0.0353401,-0.000532632,-0.000532632,-0.000532632,-0.0215478,-0.0215478,9.79962,-0.00244478,0.00177366,-0.00158192,0.000272913,0.000910143,-5.7827e-06,0.999969,-0.00123596,0.000930786,-0.000778198
2026-05-10 15:52:35.565269,inference,,,-0.105415,-0.018854,0.630525,1.5215,0.96374,0.118424,-0.161145,-0.51931,-1.53529,-1.18628,0,0,0,0,0,0,0,0,0,0,0,0,0,0,0,0,0,0,0,0,-0.0127792,0.136758,0.174907,1.02331,0.91268,-0.000953674,-0.139429,-0.175288,-1.04505,-0.916495,-0.0226593,-0.000152588,0.021286,-0.0226593,0.021286,-0.000686646,-0.000152588,-0.000686646,-0.0226593,-0.000686646,0.0642715,-1.64839,-0.088197,0.415838,-0.0470588,-0.134951,1.67393,-0.0393689,-0.404486,-0.0411994,-0.000532632,-0.000532632,-0.000532632,-0.0215478,-0.0215478,9.79962,-0.00244478,0.00177366,-0.00158192,0.000272913,0.000910143,-5.7827e-06,0.999969,-0.00123596,0.000930786,-0.000778198
2026-05-10 15:52:35.571908,inference,,,-0.105324,-0.018854,0.624532,1.5215,0.962,0.125684,-0.161145,-0.51671,-1.53529,-1.18709,0,0,0,0,0,0,0,0,0,0,0,0,0,0,0,0,0,0,0,0,-0.0127792,0.136758,0.174907,1.02331,0.912298,-0.000953674,-0.139429,-0.175288,-1.04505,-0.916495,-0.000686646,0.00473022,0.021286,-0.0226593,-0.0226593,-0.000686646,-0.000152588,-0.000686646,-0.0226593,-0.000686646,0.0759902,-1.64839,-0.0979626,0.421698,-0.0470588,-0.134951,1.66075,-0.0393689,-0.404486,-0.0411994,-0.000532632,-0.000532632,-0.000532632,-0.0215478,-0.0215478,9.79962,-0.00244478,0.00177366,-0.00158192,0.000272913,0.000910143,-5.7827e-06,0.999969,-0.00123596,0.000930786,-0.000778198
2026-05-10 15:52:35.578573,inference,,,-0.10496,-0.018854,0.618966,1.5215,0.96045,0.132461,-0.161145,-0.51505,-1.53529,-1.18787,0,0,0,0,0,0,0,0,0,0,0,0,0,0,0,0,0,0,0,0,-0.0127792,0.136758,0.174907,1.02293,0.912298,-0.000953674,-0.139429,-0.175288,-1.04505,-0.916114,-0.000686646,-0.000152588,-0.000686646,-0.0226593,0.021286,-0.000686646,0.00473022,-0.000686646,0.021286,0.021286,0.0759902,-1.64839,-0.107728,0.421698,-0.0470588,-0.134951,1.67393,-0.0491345,-0.404486,-0.0353401,-0.000532632,-0.000532632,-0.000532632,-0.0215478,-0.0215478,9.79962,-0.00244478,0.00177366,-0.00158192,0.000272913,0.000910143,-5.7827e-06,0.999969,-0.00123596,0.000930786,-0.000778198
2026-05-10 15:52:35.585185,inference,,,-0.104871,-0.018854,0.614329,1.5215,0.959294,0.138312,-0.161145,-0.513364,-1.53529,-1.18822,0,0,0,0,0,0,0,0,0,0,0,0,0,0,0,0,0,0,0,0,-0.0127792,0.136758,0.174907,1.02331,0.912298,-0.000953674,-0.139429,-0.175288,-1.04505,-0.916495,-0.000686646,-0.000152588,-0.000686646,-0.000686646,-0.0226593,0.021286,-0.000152588,-0.000686646,0.021286,-0.0226593,0.0759902,-1.64839,-0.0979626,0.427558,-0.0470588,-0.134951,1.66075,-0.0491345,-0.410346,-0.0411994,-0.000532632,-0.000532632,-0.000532632,-0.0215478,-0.0215478,9.79962,-0.00244478,0.00177366,-0.00158192,0.000272913,0.000910143,-5.7827e-06,0.999969,-0.00123596,0.000930786,-0.000778198
2026-05-10 15:52:35.591789,inference,,,-0.104764,-0.018854,0.610157,1.5215,0.958343,0.143728,-0.161145,-0.51211,-1.53529,-1.18854,0,0,0,0,0,0,0,0,0,0,0,0,0,0,0,0,0,0,0,0,-0.0127792,0.136758,0.174907,1.02293,0.91268,-0.000953674,-0.139429,-0.175288,-1.04543,-0.916495,0.021286,-0.000152588,-0.000686646,-0.000686646,0.021286,-0.000686646,-0.000152588,-0.0226593,-0.000686646,-0.0226593,0.0759902,-1.64839,-0.088197,0.421698,-0.0411994,-0.14081,1.66075,-0.0491345,-0.410346,-0.0411994,-0.000532632,-0.000532632,-0.000532632,-0.0215478,-0.0215478,9.79962,-0.00244478,0.00177366,-0.00158192,0.000272913,0.000910143,-5.7827e-06,0.999969,-0.00123596,0.000930786,-0.000778198
2026-05-10 15:52:35.598428,inference,,,-0.10536,-0.018854,0.606852,1.5215,0.957979,0.148971,-0.161145,-0.510397,-1.53529,-1.18899,0,0,0,0,0,0,0,0,0,0,0,0,0,0,0,0,0,0,0,0,-0.0127792,0.136758,0.174907,1.02331,0.912298,-0.000953674,-0.139429,-0.175288,-1.04505,-0.916114,-0.0226593,-0.000152588,-0.000686646,0.021286,-0.000686646,-0.0226593,-0.000152588,0.021286,-0.0226593,0.021286,0.0818496,-1.64839,-0.088197,0.421698,-0.0411994,-0.14081,1.66075,-0.0491345,-0.410346,-0.0411994,-0.000532632,-0.000532632,-0.000532632,-0.0215478,-0.0215478,9.79962,-0.00244478,0.00177366,-0.00158192,0.000272913,0.000910143,-5.7827e-06,0.999969,-0.00123596,0.000930786,-0.000778198
2026-05-10 15:52:35.605173,inference,,,-0.105611,-0.018854,0.603852,1.5215,0.957492,0.153608,-0.161145,-0.508763,-1.53529,-1.18948,0,0,0,0,0,0,0,0,0,0,0,0,0,0,0,0,0,0,0,0,-0.0127792,0.136758,0.174907,1.02331,0.912298,-0.000953674,-0.139429,-0.175288,-1.04505,-0.916495,-0.000686646,-0.000152588,-0.000686646,-0.000686646,-0.000686646,-0.000686646,-0.0050354,-0.000686646,-0.000686646,-0.0226593,0.0818496,-1.64839,-0.088197,0.415838,-0.0411994,-0.134951,1.66075,-0.0686657,-0.404486,-0.0411994,-0.000532632,-0.000532632,-0.000532632,-0.0215478,-0.0215478,9.79962,-0.00244478,0.00177366,-0.00158192,0.000272913,0.000910143,-5.7827e-06,0.999969,-0.00123596,0.000930786,-0.000778198
2026-05-10 15:52:35.611860,inference,,,-0.105894,-0.018854,0.600716,1.5215,0.956972,0.157996,-0.161145,-0.507432,-1.53529,-1.1901,0,0,0,0,0,0,0,0,0,0,0,0,0,0,0,0,0,0,0,0,-0.0127792,0.136758,0.174907,1.02331,0.912298,-0.000953674,-0.139429,-0.175288,-1.04505,-0.916495,-0.000686646,-0.000152588,-0.000686646,-0.000686646,-0.000686646,-0.0226593,0.00473022,-0.000686646,0.021286,-0.000686646,0.087709,-1.64839,-0.088197,0.415838,-0.0411994,-0.134951,1.66075,-0.0589001,-0.404486,-0.0411994,-0.000532632,-0.000532632,-0.000532632,-0.0215478,-0.0215478,9.79962,-0.00244478,0.00177366,-0.00158192,0.000272913,0.000910143,-5.7827e-06,0.999969,-0.00123596,0.000930786,-0.000778198
2026-05-10 15:52:35.618664,inference,,,-0.106165,-0.018854,0.597602,1.5215,0.956544,0.162303,-0.161145,-0.506074,-1.53529,-1.19104,0,0,0,0,0,0,0,0,0,0,0,0,0,0,0,0,0,0,0,0,-0.0127792,0.136758,0.174907,1.02331,0.912298,-0.000953674,-0.139429,-0.175288,-1.04505,-0.916495,-0.0226593,-0.000152588,-0.000686646,-0.0226593,-0.0226593,0.021286,-0.000152588,-0.000686646,-0.000686646,0.021286,0.087709,-1.64839,-0.088197,0.415838,-0.0411994,-0.129092,1.67393,-0.0589001,-0.410346,-0.0411994,-0.000532632,-0.000532632,-0.000532632,-0.0215478,-0.0215478,9.79962,-0.00244478,0.00177366,-0.00158192,0.000272913,0.000910143,-5.7827e-06,0.999969,-0.00123596,0.000930786,-0.000778198
2026-05-10 15:52:35.625350,inference,,,-0.106351,-0.018854,0.59488,1.5215,0.956158,0.165857,-0.161145,-0.504847,-1.53529,-1.19172,0,0,0,0,0,0,0,0,0,0,0,0,0,0,0,0,0,0,0,0,-0.0127792,0.136758,0.174907,1.02331,0.912298,-0.000953674,-0.139429,-0.175288,-1.04505,-0.916495,-0.0226593,-0.000152588,-0.000686646,0.021286,-0.000686646,0.021286,0.00473022,-0.000686646,0.0432587,-0.0226593,0.0701308,-1.64839,-0.0979626,0.427558,-0.0411994,-0.134951,1.67393,-0.0491345,-0.410346,-0.0411994,-0.000532632,-0.000532632,-0.000532632,-0.0215478,-0.0215478,9.79962,-0.00244478,0.00177366,-0.00158192,0.000272913,0.000910143,-5.7827e-06,0.999969,-0.00123596,0.000930786,-0.000778198
2026-05-10 15:52:35.632076,inference,,,-0.106555,-0.018854,0.592158,1.5215,0.955656,0.169416,-0.161145,-0.503728,-1.53529,-1.19245,0,0,0,0,0,0,0,0,0,0,0,0,0,0,0,0,0,0,0,0,-0.0127792,0.136758,0.175288,1.02331,0.912298,-0.000953674,-0.139429,-0.175288,-1.04505,-0.916495,-0.0226593,-0.000152588,-0.000686646,0.021286,-0.000686646,-0.000686646,-0.000152588,-0.000686646,0.021286,-0.000686646,0.0759902,-1.64839,-0.0979626,0.421698,-0.0411994,-0.134951,1.67393,-0.0393689,-0.416205,-0.0353401,-0.000532632,-0.000532632,-0.000532632,-0.0215478,-0.0215478,9.79962,-0.00244478,0.00177366,-0.00158192,0.000272913,0.000910143,-5.7827e-06,0.999969,-0.00123596,0.000930786,-0.000778198
2026-05-10 15:52:35.638903,inference,,,-0.106958,-0.018854,0.589743,1.5215,0.955345,0.172982,-0.161145,-0.502239,-1.53529,-1.19345,0,0,0,0,0,0,0,0,0,0,0,0,0,0,0,0,0,0,0,0,-0.0127792,0.136758,0.174907,1.02331,0.912298,-0.000953674,-0.139429,-0.175288,-1.04505,-0.916495,0.021286,-0.000152588,-0.000686646,-0.000686646,-0.000686646,-0.0226593,-0.000152588,0.021286,-0.044632,-0.000686646,0.0701308,-1.64839,-0.0979626,0.415838,-0.0411994,-0.134951,1.66075,-0.0393689,-0.410346,-0.0353401,-0.000532632,-0.000532632,-0.000532632,-0.0215478,-0.0215478,9.79962,-0.00244478,0.00177366,-0.00158192,0.000272913,0.000910143,-5.7827e-06,0.999969,-0.00123596,0.000930786,-0.000778198
2026-05-10 15:52:35.645620,inference,,,-0.10705,-0.018854,0.587231,1.5215,0.954834,0.176177,-0.161145,-0.500922,-1.53529,-1.19459,0,0,0,0,0,0,0,0,0,0,0,0,0,0,0,0,0,0,0,0,-0.0127792,0.136758,0.174907,1.02293,0.912298,-0.000953674,-0.139429,-0.175288,-1.04505,-0.916495,-0.000686646,-0.000152588,-0.000686646,-0.0226593,0.021286,-0.000686646,-0.0050354,0.021286,-0.000686646,-0.000686646,0.0759902,-1.64839,-0.0979626,0.415838,-0.0470588,-0.134951,1.66075,-0.0491345,-0.404486,-0.0411994,-0.000532632,-0.000532632,-0.000532632,-0.0215478,-0.0215478,9.79962,-0.00244478,0.00177366,-0.00158192,0.000272913,0.000910143,-5.7827e-06,0.999969,-0.00123596,0.000930786,-0.000778198
2026-05-10 15:52:35.652429,inference,,,-0.107375,-0.018854,0.584504,1.5215,0.954505,0.179678,-0.161145,-0.499543,-1.53529,-1.196,0,0,0,0,0,0,0,0,0,0,0,0,0,0,0,0,0,0,0,0,-0.0127792,0.136758,0.174907,1.02331,0.91268,-0.000953674,-0.139429,-0.174907,-1.04505,-0.916114,-0.000686646,-0.000152588,-0.000686646,-0.000686646,-0.000686646,-0.000686646,-0.000152588,0.021286,0.021286,0.021286,0.0759902,-1.66157,-0.088197,0.421698,-0.0470588,-0.134951,1.67393,-0.0491345,-0.410346,-0.0411994,-0.000532632,-0.000532632,-0.000532632,-0.0215478,-0.0215478,9.79962,-0.00244478,0.00177366,-0.00158192,0.000272913,0.000910143,-5.7827e-06,0.999969,-0.00123596,0.000930786,-0.000778198
2026-05-10 15:52:35.659385,inference,,,-0.107703,-0.018854,0.581854,1.5215,0.954227,0.183076,-0.161145,-0.497933,-1.53529,-1.19747,0,0,0,0,0,0,0,0,0,0,0,0,0,0,0,0,0,0,0,0,-0.0127792,0.136758,0.174907,1.02331,0.912298,-0.000953674,-0.139429,-0.175288,-1.04543,-0.916495,0.021286,0.00473022,-0.0226593,-0.000686646,-0.0226593,-0.000686646,-0.0050354,-0.000686646,-0.000686646,-0.000686646,0.0701308,-1.64839,-0.088197,0.415838,-0.0470588,-0.129092,1.68711,-0.0491345,-0.410346,-0.0411994,-0.000532632,-0.000532632,-0.000532632,-0.0215478,-0.0215478,9.79962,-0.00244478,0.00177366,-0.00158192,0.000272913,0.000910143,-5.7827e-06,0.999969,-0.00123596,0.000930786,-0.000778198
2026-05-10 15:52:35.666136,inference,,,-0.108048,-0.018854,0.57948,1.5215,0.953927,0.185741,-0.161145,-0.496222,-1.53529,-1.19855,0,0,0,0,0,0,0,0,0,0,0,0,0,0,0,0,0,0,0,0,-0.0127792,0.136758,0.175288,1.02331,0.91268,-0.000953674,-0.139429,-0.175288,-1.04505,-0.916495,-0.000686646,-0.000152588,-0.000686646,-0.000686646,-0.0226593,-0.000686646,-0.000152588,-0.000686646,0.021286,-0.0226593,0.0701308,-1.64839,-0.088197,0.421698,-0.0470588,-0.134951,1.67393,-0.0491345,-0.410346,-0.0411994,-0.000532632,-0.000532632,-0.000532632,-0.0215478,-0.0215478,9.79962,-0.00244478,0.00177366,-0.00158192,0.000272913,0.000910143,-5.7827e-06,0.999969,-0.00123596,0.000930786,-0.000778198
2026-05-10 15:52:35.673070,inference,,,-0.108236,-0.018854,0.576885,1.5215,0.953614,0.188678,-0.161145,-0.494719,-1.53529,-1.19996,0,0,0,0,0,0,0,0,0,0,0,0,0,0,0,0,0,0,0,0,-0.0127792,0.136758,0.174907,1.02331,0.912298,-0.000953674,-0.139429,-0.175288,-1.04505,-0.916495,-0.0226593,-0.000152588,-0.0226593,-0.000686646,-0.0226593,-0.000686646,-0.000152588,-0.0226593,-0.000686646,-0.000686646,0.0642715,-1.64839,-0.0979626,0.415838,-0.0470588,-0.134951,1.67393,-0.0491345,-0.410346,-0.0411994,-0.000532632,-0.000532632,-0.000532632,-0.0215478,-0.0215478,9.79962,-0.00244478,0.00177366,-0.00158192,0.000272913,0.000910143,-5.7827e-06,0.999969,-0.00123596,0.000930786,-0.000778198
2026-05-10 15:52:35.680039,inference,,,-0.108004,-0.018854,0.574082,1.5215,0.953142,0.191796,-0.161145,-0.493328,-1.53529,-1.20177,0,0,0,0,0,0,0,0,0,0,0,0,0,0,0,0,0,0,0,0,-0.0127792,0.136758,0.174907,1.02331,0.91268,-0.000572205,-0.139429,-0.175288,-1.04505,-0.916495,0.021286,-0.000152588,-0.000686646,-0.000686646,0.021286,0.021286,-0.000152588,-0.000686646,-0.0226593,-0.000686646,0.0759902,-1.66157,-0.088197,0.421698,-0.0411994,-0.134951,1.66075,-0.0491345,-0.404486,-0.0353401,-0.000532632,-0.000532632,-0.000532632,-0.0215478,-0.0215478,9.79962,-0.00244478,0.00177366,-0.00158192,0.000272913,0.000910143,-5.7827e-06,0.999969,-0.00123596,0.000930786,-0.000778198
2026-05-10 15:52:35.686823,inference,,,-0.108296,-0.018854,0.57152,1.5215,0.952814,0.191796,-0.161145,-0.49154,-1.53529,-1.20331,0,0,0,0,0,0,0,0,0,0,0,0,0,0,0,0,0,0,0,0,-0.0127792,0.136758,0.174907,1.02331,0.912298,-0.000953674,-0.139429,-0.175288,-1.04505,-0.916495,-0.000686646,0.00473022,-0.000686646,0.021286,-0.000686646,-0.000686646,-0.000152588,-0.000686646,-0.000686646,-0.000686646,0.0818496,-1.64839,-0.088197,0.415838,-0.0411994,-0.134951,1.67393,-0.0491345,-0.404486,-0.0353401,-0.000532632,-0.000532632,-0.000532632,-0.0215478,-0.0215478,9.79962,-0.00244478,0.00177366,-0.00158192,0.000272913,0.000910143,-5.7827e-06,0.999969,-0.00123596,0.000930786,-0.000778198
2026-05-10 15:52:35.693869,inference,,,-0.108947,-0.018854,0.569072,1.5215,0.952727,0.191796,-0.161145,-0.489399,-1.53529,-1.20504,0,0,0,0,0,0,0,0,0,0,0,0,0,0,0,0,0,0,0,0,-0.0127792,0.136758,0.174907,1.02331,0.91268,-0.000953674,-0.139429,-0.175288,-1.04505,-0.916495,-0.0226593,-0.000152588,-0.000686646,-0.000686646,-0.000686646,-0.0226593,-0.000152588,-0.000686646,-0.0226593,0.021286,0.0759902,-1.64839,-0.088197,0.421698,-0.0411994,-0.134951,1.67393,-0.0393689,-0.404486,-0.0353401,-0.000532632,-0.000532632,-0.000532632,-0.0215478,-0.0215478,9.79962,-0.00244478,0.00177366,-0.00158192,0.000272913,0.000910143,-5.7827e-06,0.999969,-0.00123596,0.000930786,-0.000778198
2026-05-10 15:52:35.700797,inference,,,-0.109285,-0.018854,0.566694,1.5215,0.952621,0.191796,-0.161145,-0.487337,-1.53529,-1.20682,0,0,0,0,0,0,0,0,0,0,0,0,0,0,0,0,0,0,0,0,-0.0127792,0.136758,0.174907,1.02331,0.91268,-0.000953674,-0.139429,-0.175288,-1.04505,-0.916495,-0.000686646,-0.000152588,-0.000686646,0.021286,-0.000686646,-0.000686646,-0.000152588,-0.0226593,-0.000686646,-0.000686646,0.0701308,-1.64839,-0.088197,0.421698,-0.0411994,-0.134951,1.67393,-0.0393689,-0.404486,-0.0411994,-0.000532632,-0.000532632,-0.000532632,-0.0215478,-0.0215478,9.79962,-0.00244478,0.00177366,-0.00158192,0.000272913,0.000910143,-5.7827e-06,0.999969,-0.00123596,0.000930786,-0.000778198
2026-05-10 15:52:35.707565,inference,,,-0.109396,-0.018854,0.563984,1.5215,0.952256,0.191796,-0.161145,-0.485475,-1.53529,-1.20875,0,0,0,0,0,0,0,0,0,0,0,0,0,0,0,0,0,0,0,0,-0.0127792,0.136758,0.174907,1.02331,0.91268,-0.000953674,-0.139429,-0.175288,-1.04505,-0.916114,0.021286,-0.000152588,0.021286,-0.000686646,0.021286,-0.000686646,-0.000152588,-0.000686646,0.021286,0.021286,0.0701308,-1.64839,-0.088197,0.421698,-0.0411994,-0.134951,1.67393,-0.0393689,-0.404486,-0.0411994,-0.000532632,-0.000532632,-0.000532632,-0.0215478,-0.0215478,9.79962,-0.00244478,0.00177366,-0.00158192,0.000272913,0.000910143,-5.7827e-06,0.999969,-0.00123596,0.000930786,-0.000778198
2026-05-10 15:52:35.714535,inference,,,-0.109751,-0.018854,0.56159,1.5215,0.952061,0.191796,-0.161145,-0.483336,-1.53529,-1.21033,0,0,0,0,0,0,0,0,0,0,0,0,0,0,0,0,0,0,0,0,-0.0127792,0.136758,0.174907,1.02331,0.912298,-0.000953674,-0.139429,-0.175288,-1.04505,-0.916495,-0.0226593,-0.0050354,-0.000686646,-0.0226593,-0.000686646,-0.000686646,-0.000152588,-0.000686646,-0.000686646,-0.0226593,0.0759902,-1.64839,-0.088197,0.415838,-0.0411994,-0.134951,1.67393,-0.0491345,-0.404486,-0.0411994,-0.000532632,-0.000532632,-0.000532632,-0.0215478,-0.0215478,9.79962,-0.00244478,0.00177366,-0.00158192,0.000272913,0.000910143,-5.7827e-06,0.999969,-0.00123596,0.000930786,-0.000778198
2026-05-10 15:52:35.721406,inference,,,-0.110397,-0.018854,0.559466,1.5215,0.952211,0.191796,-0.161145,-0.480939,-1.53529,-1.21197,0,0,0,0,0,0,0,0,0,0,0,0,0,0,0,0,0,0,0,0,-0.0127792,0.136758,0.174907,1.02331,0.912298,-0.000953674,-0.139429,-0.175288,-1.04505,-0.916495,-0.0226593,-0.000152588,-0.000686646,0.021286,-0.0226593,0.021286,-0.000152588,-0.000686646,-0.000686646,-0.000686646,0.087709,-1.64839,-0.088197,0.421698,-0.0470588,-0.129092,1.67393,-0.0491345,-0.410346,-0.0353401,-0.000532632,-0.000532632,-0.000532632,-0.0215478,-0.0215478,9.79962,-0.00244478,0.00177366,-0.00158192,0.000272913,0.000910143,-5.7827e-06,0.999969,-0.00123596,0.000930786,-0.000778198
2026-05-10 15:52:35.728258,inference,,,-0.110956,-0.018854,0.557119,1.5215,0.952316,0.191796,-0.161145,-0.478547,-1.53529,-1.214,0,0,0,0,0,0,0,0,0,0,0,0,0,0,0,0,0,0,0,0,-0.0127792,0.136758,0.174907,1.02331,0.91268,-0.000953674,-0.139429,-0.175288,-1.04543,-0.916114,-0.000686646,0.00473022,-0.000686646,-0.000686646,-0.000686646,-0.000686646,0.00473022,-0.000686646,-0.0226593,0.021286,0.0818496,-1.64839,-0.0979626,0.421698,-0.0411994,-0.134951,1.67393,-0.0589001,-0.410346,-0.0411994,-0.000532632,-0.000532632,-0.000532632,-0.0215478,-0.0215478,9.79962,-0.00244478,0.00177366,-0.00158192,0.000272913,0.000910143,-5.7827e-06,0.999969,-0.00123596,0.000930786,-0.000778198
2026-05-10 15:52:35.735215,inference,,,-0.111429,-0.018854,0.554698,1.5215,0.952296,0.191796,-0.161145,-0.476121,-1.53529,-1.21604,0,0,0,0,0,0,0,0,0,0,0,0,0,0,0,0,0,0,0,0,-0.0127792,0.136758,0.174907,1.02331,0.912298,-0.000953674,-0.139429,-0.175288,-1.04505,-0.916495,-0.000686646,-0.000152588,-0.000686646,-0.0226593,-0.000686646,-0.000686646,-0.000152588,-0.0226593,-0.000686646,-0.000686646,0.0759902,-1.64839,-0.0979626,0.421698,-0.0411994,-0.134951,1.67393,-0.0589001,-0.410346,-0.0411994,-0.000532632,-0.000532632,-0.000532632,-0.0215478,-0.0215478,9.79962,-0.00244478,0.00177366,-0.00158192,0.000272913,0.000910143,-5.7827e-06,0.999969,-0.00123596,0.000930786,-0.000778198
2026-05-10 15:52:35.742147,inference,,,-0.11211,-0.018854,0.552485,1.5215,0.952528,0.191796,-0.161145,-0.473493,-1.53529,-1.21815,0,0,0,0,0,0,0,0,0,0,0,0,0,0,0,0,0,0,0,0,-0.0127792,0.136758,0.174907,1.02331,0.912298,-0.000953674,-0.139429,-0.175288,-1.04505,-0.916114,0.021286,-0.000152588,0.021286,-0.0226593,-0.000686646,-0.000686646,-0.000152588,-0.000686646,-0.0226593,0.021286,0.0701308,-1.64839,-0.088197,0.421698,-0.0411994,-0.134951,1.67393,-0.0393689,-0.404486,-0.0470588,-0.000532632,-0.000532632,-0.000532632,-0.0215478,-0.0215478,9.79962,-0.00244478,0.00177366,-0.00158192,0.000272913,0.000910143,-5.7827e-06,0.999969,-0.00123596,0.000930786,-0.000778198
2026-05-10 15:52:35.749149,inference,,,-0.112708,-0.018854,0.550496,1.5215,0.952878,0.191796,-0.161145,-0.470916,-1.53529,-1.22029,0,0,0,0,0,0,0,0,0,0,0,0,0,0,0,0,0,0,0,0,-0.0127792,0.136758,0.174907,1.02331,0.912298,-0.000953674,-0.139429,-0.175288,-1.04505,-0.916114,-0.000686646,-0.000152588,-0.0226593,0.021286,0.021286,0.021286,-0.000152588,0.021286,-0.000686646,-0.000686646,0.0642715,-1.64839,-0.088197,0.421698,-0.0411994,-0.134951,1.66075,-0.0393689,-0.398627,-0.0470588,-0.000532632,-0.000532632,-0.000532632,-0.0215478,-0.0215478,9.79962,-0.00244478,0.00177366,-0.00158192,0.000272913,0.000910143,-5.7827e-06,0.999969,-0.00123596,0.000930786,-0.000778198
2026-05-10 15:52:35.756167,inference,,,-0.113856,-0.018854,0.548497,1.5215,0.953229,0.191796,-0.161145,-0.467984,-1.53529,-1.22203,0,0,0,0,0,0,0,0,0,0,0,0,0,0,0,0,0,0,0,0,-0.0127792,0.136758,0.174907,1.02331,0.912298,-0.000953674,-0.139429,-0.175288,-1.04505,-0.916495,0.0432587,-0.000152588,-0.000686646,-0.000686646,-0.0226593,-0.000686646,-0.000152588,0.021286,0.0432587,-0.0226593,0.0584121,-1.64839,-0.0979626,0.421698,-0.0470588,-0.134951,1.66075,-0.0393689,-0.404486,-0.0411994,-0.000532632,-0.000532632,-0.000532632,-0.0215478,-0.0215478,9.79962,-0.00244478,0.00177366,-0.00158192,0.000272913,0.000910143,-5.7827e-06,0.999969,-0.00123596,0.000930786,-0.000778198
2026-05-10 15:52:35.763161,inference,,,-0.114705,-0.018854,0.546599,1.5215,0.953638,0.191796,-0.161145,-0.465176,-1.53529,-1.22362,0,0,0,0,0,0,0,0,0,0,0,0,0,0,0,0,0,0,0,0,-0.0127792,0.136758,0.174907,1.02331,0.912298,-0.000953674,-0.139429,-0.175288,-1.04505,-0.916495,-0.0226593,-0.000152588,-0.000686646,-0.000686646,-0.000686646,0.021286,-0.000152588,-0.0226593,-0.0226593,-0.044632,0.0759902,-1.64839,-0.088197,0.415838,-0.0411994,-0.134951,1.67393,-0.0491345,-0.410346,-0.0411994,-0.000532632,-0.000532632,-0.000532632,-0.0215478,-0.0215478,9.79962,-0.00244478,0.00186954,-0.00158192,0.000272913,0.00100602,-5.7827e-06,0.999969,-0.00123596,0.000930786,-0.000778198
2026-05-10 15:52:35.770126,inference,,,-0.115718,-0.018854,0.544724,1.5215,0.954247,0.191796,-0.161145,-0.46214,-1.53529,-1.2259,0,0,0,0,0,0,0,0,0,0,0,0,0,0,0,0,0,0,0,0,-0.0127792,0.136758,0.174907,1.02331,0.912298,-0.000953674,-0.139429,-0.175288,-1.04505,-0.916114,0.021286,-0.000152588,-0.000686646,-0.000686646,0.021286,-0.000686646,-0.000152588,-0.000686646,-0.0226593,-0.000686646,0.087709,-1.64839,-0.088197,0.415838,-0.0411994,-0.134951,1.67393,-0.0491345,-0.410346,-0.0411994,-0.000532632,-0.000532632,-0.000532632,-0.0215478,-0.0215478,9.79962,-0.00244478,0.00186954,-0.00158192,0.000272913,0.00100602,-5.7827e-06,0.999969,-0.00123596,0.000930786,-0.000778198
2026-05-10 15:52:35.777112,inference,,,-0.117037,-0.018854,0.5426,1.5215,0.954891,0.191796,-0.161145,-0.458704,-1.53529,-1.22798,0,0,0,0,0,0,0,0,0,0,0,0,0,0,0,0,0,0,0,0,-0.0127792,0.136758,0.174907,1.02331,0.91268,-0.000953674,-0.139429,-0.175288,-1.04543,-0.916495,-0.000686646,-0.000152588,-0.000686646,-0.000686646,-0.0226593,0.021286,-0.000152588,-0.000686646,-0.000686646,-0.0226593,0.087709,-1.66157,-0.088197,0.415838,-0.0411994,-0.134951,1.67393,-0.0589001,-0.404486,-0.0411994,-0.000532632,-0.000532632,-0.000532632,-0.0215478,-0.0215478,9.79962,-0.00244478,0.00186954,-0.00158192,0.000272913,0.00100602,-5.7827e-06,0.999969,-0.00123596,0.000930786,-0.000778198
2026-05-10 15:52:35.784094,inference,,,-0.118363,-0.018854,0.540619,1.5215,0.955603,0.191796,-0.161145,-0.455393,-1.53529,-1.23008,0,0,0,0,0,0,0,0,0,0,0,0,0,0,0,0,0,0,0,0,-0.0127792,0.136758,0.174907,1.02331,0.912298,-0.000953674,-0.139429,-0.175288,-1.04505,-0.916114,-0.000686646,-0.000152588,-0.000686646,-0.000686646,-0.000686646,-0.000686646,-0.000152588,0.021286,-0.000686646,-0.000686646,0.087709,-1.64839,-0.088197,0.415838,-0.0411994,-0.134951,1.67393,-0.0491345,-0.404486,-0.0411994,-0.000532632,-0.000532632,-0.000532632,-0.0215478,-0.0215478,9.79962,-0.00244478,0.00186954,-0.00158192,0.000272913,0.00100602,-5.7827e-06,0.999969,-0.00123596,0.000930786,-0.000778198
2026-05-10 15:52:35.790751,inference,,,-0.119652,-0.018854,0.538393,1.5215,0.956249,0.191796,-0.161145,-0.451996,-1.53529,-1.23253,0,0,0,0,0,0,0,0,0,0,0,0,0,0,0,0,0,0,0,0,-0.0127792,0.136758,0.174907,1.02331,0.912298,-0.000953674,-0.139429,-0.175288,-1.04505,-0.916114,-0.000686646,0.00473022,-0.000686646,-0.000686646,-0.000686646,-0.000686646,-0.000152588,-0.0226593,-0.000686646,0.021286,0.0818496,-1.64839,-0.088197,0.421698,-0.0411994,-0.134951,1.67393,-0.0491345,-0.404486,-0.0411994,-0.000532632,-0.000532632,-0.000532632,-0.0215478,-0.0215478,9.80441,-0.00244478,0.00186954,-0.00158192,0.000272913,0.00100602,-5.7827e-06,0.999969,-0.00123596,0.000930786,-0.000778198
2026-05-10 15:52:35.797767,inference,,,-0.121174,-0.018854,0.536292,1.5215,0.956919,0.191796,-0.161145,-0.44828,-1.53529,-1.23449,0,0,0,0,0,0,0,0,0,0,0,0,0,0,0,0,0,0,0,0,-0.0127792,0.136758,0.174907,1.02331,0.91268,-0.000953674,-0.139429,-0.175288,-1.04505,-0.916495,-0.000686646,-0.000152588,-0.000686646,-0.000686646,-0.000686646,-0.0226593,-0.000152588,-0.000686646,0.021286,-0.0226593,0.0759902,-1.64839,-0.0784314,0.415838,-0.0411994,-0.134951,1.67393,-0.0491345,-0.404486,-0.0470588,-0.000532632,-0.000532632,-0.000532632,-0.0215478,-0.0215478,9.80441,-0.00244478,0.00186954,-0.00158192,0.000272913,0.00100602,-5.7827e-06,0.999969,-0.00123596,0.000930786,-0.000778198
2026-05-10 15:52:35.804797,inference,,,-0.122451,-0.018854,0.534074,1.5215,0.9574,0.191796,-0.161145,-0.4446,-1.53529,-1.23643,0,0,0,0,0,0,0,0,0,0,0,0,0,0,0,0,0,0,0,0,-0.0127792,0.136758,0.174907,1.02331,0.91268,-0.000953674,-0.139429,-0.175288,-1.04505,-0.916495,-0.000686646,-0.000152588,-0.000686646,-0.000686646,-0.000686646,0.021286,-0.000152588,-0.000686646,-0.000686646,-0.000686646,0.0759902,-1.64839,-0.088197,0.415838,-0.0411994,-0.134951,1.67393,-0.0393689,-0.404486,-0.0411994,-0.000532632,-0.000532632,-0.000532632,-0.0215478,-0.0215478,9.80441,-0.00244478,0.00186954,-0.00158192,0.000272913,0.00100602,-5.7827e-06,0.999969,-0.00123596,0.000930786,-0.000778198
2026-05-10 15:52:35.811612,inference,,,-0.12436,-0.018854,0.532053,1.5215,0.958083,0.191796,-0.161145,-0.440374,-1.53529,-1.23842,0,0,0,0,0,0,0,0,0,0,0,0,0,0,0,0,0,0,0,0,-0.0127792,0.136758,0.174907,1.02293,0.912298,-0.000953674,-0.139429,-0.174907,-1.04543,-0.916495,-0.000686646,-0.000152588,-0.000686646,-0.000686646,-0.0226593,-0.000686646,-0.000152588,0.021286,-0.0226593,-0.000686646,0.0642715,-1.64839,-0.088197,0.415838,-0.0470588,-0.134951,1.67393,-0.0393689,-0.404486,-0.0411994,-0.000532632,-0.000532632,-0.000532632,-0.0215478,-0.0215478,9.80441,-0.00244478,0.00186954,-0.00158192,0.000272913,0.00100602,-5.7827e-06,0.999969,-0.00123596,0.000930786,-0.000778198
2026-05-10 15:52:35.818342,inference,,,-0.125917,-0.018854,0.529758,1.5215,0.958412,0.191796,-0.161145,-0.436473,-1.53529,-1.24027,0,0,0,0,0,0,0,0,0,0,0,0,0,0,0,0,0,0,0,0,-0.0127792,0.136758,0.174907,1.02331,0.912298,-0.000953674,-0.139429,-0.175288,-1.04505,-0.916495,-0.000686646,-0.000152588,-0.000686646,-0.000686646,-0.000686646,0.021286,0.00473022,-0.0226593,-0.000686646,-0.000686646,0.0642715,-1.64839,-0.088197,0.415838,-0.0411994,-0.134951,1.67393,-0.0393689,-0.404486,-0.0411994,-0.000532632,-0.000532632,-0.000532632,-0.0167594,-0.0215478,9.80441,-0.00244478,0.00186954,-0.00158192,0.000272913,0.00100602,-5.7827e-06,0.999969,-0.00123596,0.000930786,-0.000778198
2026-05-10 15:52:35.825018,inference,,,-0.127613,-0.018854,0.527333,1.5215,0.958548,0.191796,-0.161145,-0.432473,-1.53529,-1.24183,0,0,0,0,0,0,0,0,0,0,0,0,0,0,0,0,0,0,0,0,-0.0127792,0.136758,0.175288,1.02331,0.912298,-0.000953674,-0.139429,-0.175288,-1.04543,-0.916495,-0.000686646,-0.000152588,0.021286,-0.000686646,-0.000686646,0.021286,-0.000152588,-0.000686646,-0.000686646,-0.000686646,0.0642715,-1.64839,-0.088197,0.421698,-0.0470588,-0.134951,1.67393,-0.0393689,-0.398627,-0.0411994,-0.000532632,-0.000532632,-0.000532632,-0.0167594,-0.0215478,9.80441,-0.00244478,0.00186954,-0.00158192,0.000272913,0.00100602,-5.7827e-06,0.999969,-0.00123596,0.000930786,-0.000778198
2026-05-10 15:52:35.831914,inference,,,-0.129708,-0.018854,0.524606,1.5215,0.958605,0.191796,-0.161145,-0.4283,-1.53529,-1.24297,0,0,0,0,0,0,0,0,0,0,0,0,0,0,0,0,0,0,0,0,-0.0127792,0.136758,0.175288,1.02331,0.91268,-0.000953674,-0.139429,-0.175288,-1.04505,-0.916495,-0.000686646,-0.000152588,0.021286,0.021286,-0.000686646,-0.000686646,-0.0050354,-0.000686646,0.021286,-0.000686646,0.0759902,-1.64839,-0.0979626,0.421698,-0.0470588,-0.14081,1.67393,-0.0491345,-0.404486,-0.0353401,-0.000532632,-0.000532632,-0.000532632,-0.0167594,-0.0215478,9.80441,-0.00244478,0.00186954,-0.00158192,0.000272913,0.00100602,-5.7827e-06,0.999969,-0.00123596,0.000930786,-0.000778198
2026-05-10 15:52:35.838601,inference,,,-0.131981,-0.018854,0.521529,1.5215,0.958502,0.191796,-0.161145,-0.424061,-1.53529,-1.24377,0,0,0,0,0,0,0,0,0,0,0,0,0,0,0,0,0,0,0,0,-0.0127792,0.136758,0.174907,1.02331,0.91268,-0.000953674,-0.139429,-0.175288,-1.04543,-0.916114,-0.000686646,-0.000152588,-0.0226593,-0.000686646,-0.000686646,-0.0226593,-0.000152588,-0.000686646,-0.000686646,0.021286,0.087709,-1.64839,-0.0979626,0.421698,-0.0470588,-0.134951,1.66075,-0.0491345,-0.410346,-0.0353401,-0.000532632,-0.000532632,-0.000532632,-0.0167594,-0.0215478,9.79962,-0.00244478,0.00186954,-0.00158192,0.000272913,0.00100602,-5.7827e-06,0.999969,-0.00123596,0.000930786,-0.000778198
2026-05-10 15:52:35.845502,inference,,,-0.134355,-0.018854,0.517959,1.5215,0.957978,0.191796,-0.161145,-0.419751,-1.53529,-1.24388,0,0,0,0,0,0,0,0,0,0,0,0,0,0,0,0,0,0,0,0,-0.0127792,0.136758,0.174907,1.02331,0.912298,-0.000953674,-0.139429,-0.175288,-1.04505,-0.916114,-0.000686646,-0.000152588,0.021286,-0.0226593,-0.000686646,-0.000686646,-0.000152588,-0.000686646,-0.000686646,0.021286,0.0818496,-1.64839,-0.0979626,0.427558,-0.0470588,-0.134951,1.66075,-0.0491345,-0.404486,-0.0470588,-0.000532632,-0.000532632,-0.000532632,-0.0167594,-0.0215478,9.79962,-0.00244478,0.00186954,-0.00158192,0.000272913,0.00100602,-5.7827e-06,0.999969,-0.00123596,0.000930786,-0.000778198
2026-05-10 15:52:35.852389,inference,,,-0.137306,-0.018854,0.514318,1.5215,0.957328,0.191796,-0.161145,-0.415318,-1.53529,-1.24277,0,0,0,0,0,0,0,0,0,0,0,0,0,0,0,0,0,0,0,0,-0.0127792,0.136758,0.174907,1.02331,0.912298,-0.000953674,-0.139429,-0.175288,-1.04505,-0.916495,0.021286,-0.000152588,-0.000686646,0.021286,-0.000686646,-0.0226593,-0.000152588,0.021286,0.021286,-0.000686646,0.0759902,-1.64839,-0.0979626,0.427558,-0.0470588,-0.134951,1.67393,-0.0393689,-0.404486,-0.0470588,-0.000532632,-0.000532632,-0.000532632,-0.0167594,-0.0215478,9.79962,-0.00244478,0.00186954,-0.00158192,0.000272913,0.00100602,-5.7827e-06,0.999969,-0.00123596,0.000930786,-0.000778198
2026-05-10 15:52:35.859463,inference,,,-0.141031,-0.018854,0.510535,1.5215,0.956527,0.191796,-0.161145,-0.410536,-1.53529,-1.2405,0,0,0,0,0,0,0,0,0,0,0,0,0,0,0,0,0,0,0,0,-0.0127792,0.136758,0.175288,1.02293,0.912298,-0.000953674,-0.139429,-0.175288,-1.04505,-0.916495,-0.000686646,-0.000152588,0.021286,-0.0226593,-0.0226593,-0.0226593,-0.000152588,0.021286,0.021286,-0.000686646,0.0701308,-1.64839,-0.0979626,0.421698,-0.0470588,-0.134951,1.67393,-0.0393689,-0.404486,-0.0470588,-0.000532632,-0.000532632,-0.000532632,-0.0167594,-0.0215478,9.79962,-0.00244478,0.00186954,-0.00158192,0.000272913,0.00100602,-5.7827e-06,0.999969,-0.00123596,0.000930786,-0.000778198
2026-05-10 15:52:35.866102,inference,,,-0.144508,-0.018854,0.506921,1.5215,0.955875,0.191796,-0.161145,-0.40655,-1.53529,-1.23748,0,0,0,0,0,0,0,0,0,0,0,0,0,0,0,0,0,0,0,0,-0.0127792,0.136758,0.174907,1.02331,0.912298,-0.000953674,-0.139429,-0.175288,-1.04543,-0.916495,-0.000686646,-0.000152588,-0.000686646,-0.0226593,-0.000686646,-0.0226593,-0.0050354,-0.000686646,-0.0226593,-0.000686646,0.0701308,-1.64839,-0.088197,0.415838,-0.0470588,-0.134951,1.66075,-0.0393689,-0.410346,-0.0353401,-0.000532632,-0.000532632,-0.000532632,-0.0167594,-0.0215478,9.79962,-0.00244478,0.00186954,-0.00158192,0.000272913,0.00100602,-5.7827e-06,0.999969,-0.00123596,0.000930786,-0.000778198
2026-05-10 15:52:35.872726,inference,,,-0.148145,-0.018854,0.503134,1.5215,0.955135,0.191796,-0.161145,-0.40289,-1.53529,-1.23346,0,0,0,0,0,0,0,0,0,0,0,0,0,0,0,0,0,0,0,0,-0.0127792,0.136758,0.174907,1.02331,0.912298,-0.000953674,-0.139429,-0.175288,-1.04505,-0.916495,-0.000686646,0.00473022,-0.000686646,-0.000686646,-0.000686646,-0.000686646,-0.000152588,-0.000686646,-0.0226593,-0.000686646,0.0759902,-1.64839,-0.088197,0.415838,-0.0411994,-0.134951,1.67393,-0.0393689,-0.410346,-0.0411994,-0.000532632,-0.000532632,-0.000532632,-0.0167594,-0.0215478,9.79962,-0.00244478,0.00186954,-0.00158192,0.000272913,0.00100602,-5.7827e-06,0.999969,-0.00123596,0.000930786,-0.000778198
2026-05-10 15:52:35.879416,inference,,,-0.15213,-0.018854,0.499208,1.5215,0.954325,0.191796,-0.161145,-0.399687,-1.53529,-1.22874,0,0,0,0,0,0,0,0,0,0,0,0,0,0,0,0,0,0,0,0,-0.0127792,0.136758,0.174907,1.02331,0.912298,-0.000953674,-0.139429,-0.175288,-1.04505,-0.916495,0.021286,-0.000152588,0.021286,-0.0226593,0.021286,-0.000686646,-0.000152588,-0.000686646,-0.0226593,0.021286,0.0818496,-1.64839,-0.088197,0.421698,-0.0411994,-0.134951,1.67393,-0.0491345,-0.410346,-0.0411994,-0.000532632,-0.000532632,-0.000532632,-0.0167594,-0.0215478,9.79962,-0.00244478,0.00186954,-0.00158192,0.000272913,0.00100602,-5.7827e-06,0.999969,-0.00123596,0.000930786,-0.000778198
2026-05-10 15:52:35.886040,inference,,,-0.157164,-0.018854,0.49596,1.5215,0.954153,0.191796,-0.161145,-0.397557,-1.53529,-1.22242,0,0,0,0,0,0,0,0,0,0,0,0,0,0,0,0,0,0,0,0,-0.0127792,0.136758,0.174907,1.02331,0.912298,-0.000953674,-0.139429,-0.175288,-1.04543,-0.916495,-0.000686646,-0.000152588,0.021286,0.021286,-0.000686646,0.021286,-0.000152588,0.021286,0.021286,-0.000686646,0.0818496,-1.64839,-0.088197,0.421698,-0.0470588,-0.129092,1.67393,-0.0491345,-0.404486,-0.0411994,-0.000532632,-0.000532632,-0.000532632,-0.0167594,-0.0215478,9.79962,-0.00244478,0.00186954,-0.00158192,0.000272913,0.00100602,-5.7827e-06,0.999969,-0.00123596,0.000930786,-0.000778198
2026-05-10 15:52:35.892714,inference,,,-0.163423,-0.018854,0.492869,1.5215,0.954488,0.191796,-0.161145,-0.39634,-1.53529,-1.21488,0,0,0,0,0,0,0,0,0,0,0,0,0,0,0,0,0,0,0,0,-0.0127792,0.136758,0.174907,1.02331,0.912298,-0.000953674,-0.139429,-0.175288,-1.04505,-0.916495,-0.0226593,-0.000152588,-0.000686646,-0.0226593,-0.000686646,-0.0226593,-0.000152588,-0.000686646,0.021286,0.0432587,0.0759902,-1.64839,-0.0979626,0.415838,-0.0470588,-0.134951,1.67393,-0.0491345,-0.410346,-0.0353401,-0.000532632,-0.000532632,-0.000532632,-0.0167594,-0.0215478,9.79962,-0.00244478,0.00177366,-0.00158192,0.000272913,0.000910143,-5.7827e-06,0.999969,-0.00123596,0.000930786,-0.000778198
2026-05-10 15:52:35.899349,inference,,,-0.1697,-0.018854,0.490318,1.5215,0.955319,0.191796,-0.161145,-0.397143,-1.53529,-1.20593,0,0,0,0,0,0,0,0,0,0,0,0,0,0,0,0,0,0,0,0,-0.0127792,0.136758,0.174907,1.02331,0.912298,-0.000953674,-0.139429,-0.175288,-1.04505,-0.916495,-0.000686646,-0.0050354,0.021286,-0.0226593,-0.000686646,-0.000686646,-0.0050354,-0.0226593,-0.000686646,-0.000686646,0.0642715,-1.64839,-0.0784314,0.421698,-0.0411994,-0.14081,1.67393,-0.0393689,-0.404486,-0.0411994,-0.000532632,-0.000532632,-0.000532632,-0.0167594,-0.0215478,9.79962,-0.00244478,0.00177366,-0.00158192,0.000272913,0.000910143,-5.7827e-06,0.999969,-0.00123596,0.000930786,-0.000778198
2026-05-10 15:52:35.906121,inference,,,-0.176021,-0.018854,0.488212,1.5215,0.956537,0.191796,-0.161145,-0.399915,-1.53529,-1.19559,0,0,0,0,0,0,0,0,0,0,0,0,0,0,0,0,0,0,0,0,-0.0127792,0.136758,0.175288,1.02293,0.91268,-0.000953674,-0.139429,-0.175288,-1.04505,-0.916495,0.021286,-0.000152588,0.021286,-0.0226593,-0.000686646,-0.000686646,-0.000152588,0.021286,-0.000686646,-0.000686646,0.0642715,-1.64839,-0.088197,0.421698,-0.0470588,-0.134951,1.67393,-0.0393689,-0.404486,-0.0411994,-0.000532632,-0.000532632,-0.000532632,-0.0167594,-0.0215478,9.79962,-0.00244478,0.00177366,-0.00158192,0.000272913,0.000910143,-5.7827e-06,0.999969,-0.00123596,0.000930786,-0.000778198
2026-05-10 15:52:35.912821,inference,,,-0.181688,-0.018854,0.486187,1.5215,0.957883,0.191796,-0.161145,-0.405086,-1.53529,-1.18482,0,0,0,0,0,0,0,0,0,0,0,0,0,0,0,0,0,0,0,0,-0.0127792,0.136758,0.175288,1.02331,0.912298,-0.000953674,-0.139429,-0.175288,-1.04543,-0.916495,-0.000686646,-0.000152588,0.021286,-0.0226593,-0.000686646,-0.000686646,-0.000152588,-0.0226593,-0.044632,0.021286,0.0642715,-1.64839,-0.088197,0.421698,-0.0470588,-0.134951,1.67393,-0.0393689,-0.404486,-0.0411994,-0.000532632,-0.000532632,-0.000532632,-0.0167594,-0.0215478,9.79962,-0.00244478,0.00177366,-0.00158192,0.000272913,0.000910143,-5.7827e-06,0.999969,-0.00123596,0.000930786,-0.000778198
2026-05-10 15:52:35.919451,inference,,,-0.186809,-0.018854,0.484873,1.5215,0.959823,0.191796,-0.161145,-0.413992,-1.53529,-1.17284,0,0,0,0,0,0,0,0,0,0,0,0,0,0,0,0,0,0,0,0,-0.0127792,0.136758,0.174907,1.02331,0.912298,-0.000953674,-0.139429,-0.175288,-1.04505,-0.916114,-0.0226593,-0.000152588,-0.000686646,-0.000686646,-0.000686646,-0.0226593,-0.000152588,0.021286,-0.000686646,0.021286,0.0759902,-1.64839,-0.088197,0.415838,-0.0470588,-0.14081,1.68711,-0.0491345,-0.410346,-0.0411994,-0.000532632,-0.000532632,-0.000532632,-0.0167594,-0.0215478,9.79962,-0.00244478,0.00177366,-0.00158192,0.000272913,0.000910143,-5.7827e-06,0.999969,-0.00123596,0.000930786,-0.000778198
2026-05-10 15:52:35.926552,inference,,,-0.18969,-0.018854,0.483689,1.5215,0.961244,0.191796,-0.161145,-0.427537,-1.53529,-1.16007,0,0,0,0,0,0,0,0,0,0,0,0,0,0,0,0,0,0,0,0,-0.0127792,0.136758,0.174907,1.02331,0.91268,-0.000572205,-0.139429,-0.175288,-1.04505,-0.916495,0.021286,-0.000152588,0.021286,-0.0226593,0.021286,0.021286,-0.000152588,-0.000686646,0.021286,-0.000686646,0.0818496,-1.64839,-0.088197,0.421698,-0.0411994,-0.134951,1.67393,-0.0393689,-0.404486,-0.0470588,-0.000532632,-0.000532632,-0.000532632,-0.0167594,-0.0215478,9.79962,-0.00244478,0.00177366,-0.00158192,0.000272913,0.000910143,-5.7827e-06,0.999969,-0.00123596,0.000930786,-0.000778198
2026-05-10 15:52:35.933237,inference,,,-0.191516,-0.018854,0.483224,1.5215,0.962876,0.191796,-0.161145,-0.444803,-1.53529,-1.1466,0,0,0,0,0,0,0,0,0,0,0,0,0,0,0,0,0,0,0,0,-0.0127792,0.136758,0.174907,1.02331,0.912298,-0.000953674,-0.139429,-0.175288,-1.04505,-0.916495,-0.000686646,-0.0050354,-0.000686646,-0.000686646,-0.000686646,-0.000686646,-0.000152588,-0.000686646,-0.000686646,-0.000686646,0.0701308,-1.64839,-0.088197,0.421698,-0.0411994,-0.14081,1.67393,-0.0393689,-0.404486,-0.0470588,-0.000532632,-0.000532632,-0.000532632,-0.0167594,-0.0215478,9.79962,-0.00244478,0.00177366,-0.00158192,0.000272913,0.000910143,-5.7827e-06,0.999969,-0.00123596,0.000930786,-0.000778198
2026-05-10 15:52:35.939950,inference,,,-0.192322,-0.018854,0.483412,1.5215,0.964517,0.191796,-0.161145,-0.465785,-1.53529,-1.13227,0,0,0,0,0,0,0,0,0,0,0,0,0,0,0,0,0,0,0,0,-0.0127792,0.136758,0.174907,1.02331,0.91268,-0.000953674,-0.139429,-0.175288,-1.04505,-0.916495,-0.000686646,0.00473022,-0.000686646,-0.000686646,-0.0226593,-0.000686646,-0.000152588,-0.0226593,-0.000686646,-0.0226593,0.0759902,-1.64839,-0.0979626,0.421698,-0.0411994,-0.14081,1.67393,-0.0393689,-0.404486,-0.0411994,-0.000532632,-0.000532632,-0.000532632,-0.0167594,-0.0215478,9.80441,-0.00244478,0.00177366,-0.00158192,0.000272913,0.000910143,-5.7827e-06,0.999969,-0.00123596,0.000930786,-0.000778198
2026-05-10 15:52:35.946627,inference,,,-0.191016,-0.018854,0.483037,1.5215,0.964834,0.191796,-0.161145,-0.49125,-1.53529,-1.11743,0,0,0,0,0,0,0,0,0,0,0,0,0,0,0,0,0,0,0,0,-0.0127792,0.136758,0.174907,1.02331,0.91268,-0.000953674,-0.139429,-0.175288,-1.04505,-0.916495,-0.000686646,-0.000152588,-0.0226593,-0.0226593,-0.000686646,-0.0226593,-0.000152588,-0.000686646,-0.000686646,-0.000686646,0.0701308,-1.64839,-0.0979626,0.421698,-0.0411994,-0.134951,1.67393,-0.0393689,-0.404486,-0.0411994,-0.000532632,-0.000532632,-0.000532632,-0.0167594,-0.0215478,9.80441,-0.00244478,0.00177366,-0.00158192,0.000272913,0.000910143,-5.7827e-06,0.999969,-0.00123596,0.000930786,-0.000778198
2026-05-10 15:52:35.953293,inference,,,-0.186639,-0.018854,0.481141,1.5215,0.962983,0.191796,-0.161145,-0.522485,-1.53529,-1.10244,0,0,0,0,0,0,0,0,0,0,0,0,0,0,0,0,0,0,0,0,-0.0127792,0.136758,0.174907,1.02331,0.912298,-0.000953674,-0.139429,-0.175288,-1.04505,-0.916495,0.021286,-0.000152588,-0.000686646,-0.000686646,-0.000686646,-0.000686646,-0.000152588,-0.000686646,-0.000686646,-0.0226593,0.0642715,-1.64839,-0.0979626,0.421698,-0.0411994,-0.134951,1.67393,-0.0393689,-0.410346,-0.0411994,-0.000532632,-0.000532632,-0.000532632,-0.0167594,-0.0215478,9.80441,-0.00244478,0.00177366,-0.00158192,0.000272913,0.000910143,-5.7827e-06,0.999969,-0.00123596,0.000930786,-0.000778198
2026-05-10 15:52:35.959920,inference,,,-0.179796,-0.018854,0.477098,1.5215,0.95862,0.191796,-0.161145,-0.558871,-1.53529,-1.08732,0,0,0,0,0,0,0,0,0,0,0,0,0,0,0,0,0,0,0,0,-0.0127792,0.136758,0.174907,1.02293,0.912298,-0.000953674,-0.139429,-0.175288,-1.04543,-0.916495,-0.000686646,-0.000152588,-0.0226593,-0.000686646,-0.0226593,-0.000686646,-0.000152588,-0.000686646,-0.000686646,-0.044632,0.0759902,-1.64839,-0.0979626,0.415838,-0.0411994,-0.134951,1.67393,-0.0393689,-0.404486,-0.0353401,-0.000532632,-0.000532632,-0.000532632,-0.0167594,-0.0215478,9.79962,-0.00244478,0.00177366,-0.00158192,0.000272913,0.000910143,-5.7827e-06,0.999969,-0.00123596,0.000930786,-0.000778198
2026-05-10 15:52:35.966590,inference,,,-0.169516,-0.018854,0.468881,1.5215,0.950675,0.191796,-0.161145,-0.598158,-1.53529,-1.07333,0,0,0,0,0,0,0,0,0,0,0,0,0,0,0,0,0,0,0,0,-0.0127792,0.136758,0.174907,1.02331,0.912298,-0.000953674,-0.139429,-0.175288,-1.04505,-0.916495,-0.0226593,0.00473022,-0.000686646,-0.000686646,0.021286,-0.000686646,-0.0050354,-0.000686646,0.021286,-0.000686646,0.087709,-1.64839,-0.0979626,0.415838,-0.0411994,-0.134951,1.67393,-0.0393689,-0.404486,-0.0294807,-0.000532632,-0.000532632,-0.000532632,-0.0167594,-0.0215478,9.79962,-0.00244478,0.00177366,-0.00158192,0.000272913,0.000910143,-5.7827e-06,0.999969,-0.00123596,0.000930786,-0.000778198
2026-05-10 15:52:35.973250,inference,,,-0.15582,-0.018854,0.454851,1.5215,0.938803,0.191796,-0.161145,-0.638629,-1.53529,-1.0628,0,0,0,0,0,0,0,0,0,0,0,0,0,0,0,0,0,0,0,0,-0.0127792,0.136758,0.175288,1.02331,0.912298,-0.000953674,-0.139429,-0.175288,-1.04505,-0.916495,0.021286,-0.000152588,-0.000686646,-0.000686646,-0.000686646,-0.000686646,-0.0050354,-0.000686646,-0.0226593,-0.000686646,0.0818496,-1.64839,-0.088197,0.415838,-0.0470588,-0.134951,1.67393,-0.0393689,-0.410346,-0.0353401,-0.000532632,-0.000532632,-0.000532632,-0.0167594,-0.0215478,9.79962,-0.00244478,0.00177366,-0.00158192,0.000272913,0.000910143,-5.7827e-06,0.999969,-0.00123596,0.000930786,-0.000778198
2026-05-10 15:52:35.979864,inference,,,-0.139898,-0.018854,0.435837,1.5215,0.924032,0.191796,-0.161145,-0.674988,-1.53529,-1.05723,0,0,0,0,0,0,0,0,0,0,0,0,0,0,0,0,0,0,0,0,-0.0127792,0.136758,0.174907,1.02331,0.912298,-0.000953674,-0.139429,-0.175288,-1.04505,-0.916495,-0.0226593,0.00473022,-0.0226593,0.021286,-0.000686646,0.021286,-0.000152588,-0.000686646,-0.000686646,-0.000686646,0.0701308,-1.64839,-0.088197,0.415838,-0.0470588,-0.134951,1.66075,-0.0393689,-0.410346,-0.0411994,-0.000532632,-0.000532632,-0.000532632,-0.0167594,-0.0215478,9.79962,-0.00244478,0.00177366,-0.00158192,0.000272913,0.000910143,-5.7827e-06,0.999969,-0.00123596,0.000930786,-0.000778198
2026-05-10 15:52:35.986530,inference,,,-0.124522,-0.018854,0.414159,1.5215,0.907459,0.191796,-0.161145,-0.701103,-1.53529,-1.05648,0,0,0,0,0,0,0,0,0,0,0,0,0,0,0,0,0,0,0,0,-0.0127792,0.136758,0.174907,1.02331,0.91268,-0.000953674,-0.139429,-0.175288,-1.04505,-0.916495,-0.000686646,0.00473022,-0.000686646,-0.000686646,0.021286,-0.0226593,-0.000152588,-0.000686646,-0.0226593,-0.000686646,0.0701308,-1.64839,-0.0979626,0.415838,-0.0470588,-0.134951,1.66075,-0.0393689,-0.410346,-0.0411994,-0.000532632,-0.000532632,-0.000532632,-0.0167594,-0.0215478,9.79962,-0.00244478,0.00177366,-0.00158192,0.000272913,0.000910143,-5.7827e-06,0.999969,-0.00123596,0.000930786,-0.000778198
2026-05-10 15:52:35.993184,inference,,,-0.11015,-0.018854,0.389654,1.5215,0.88865,0.191796,-0.161145,-0.71566,-1.53529,-1.06089,0,0,0,0,0,0,0,0,0,0,0,0,0,0,0,0,0,0,0,0,-0.0127792,0.136758,0.174907,1.02331,0.91268,-0.000953674,-0.139429,-0.175288,-1.04505,-0.916495,0.021286,-0.000152588,-0.000686646,-0.000686646,-0.000686646,-0.000686646,-0.000152588,-0.000686646,-0.000686646,-0.000686646,0.0759902,-1.64839,-0.0979626,0.415838,-0.0411994,-0.134951,1.67393,-0.0393689,-0.398627,-0.0353401,-0.000532632,-0.000532632,-0.000532632,-0.0167594,-0.0215478,9.79962,-0.00244478,0.00177366,-0.00158192,0.000272913,0.000910143,-5.7827e-06,0.999969,-0.00123596,0.000930786,-0.000778198
2026-05-10 15:52:35.999785,inference,,,-0.0954364,-0.018854,0.360874,1.5215,0.866538,0.191796,-0.161145,-0.72125,-1.53529,-1.0695,0,0,0,0,0,0,0,0,0,0,0,0,0,0,0,0,0,0,0,0,-0.0127792,0.136758,0.174907,1.02293,0.912298,-0.000953674,-0.139429,-0.175288,-1.04505,-0.916495,0.021286,-0.000152588,-0.000686646,-0.0226593,-0.000686646,-0.000686646,-0.000152588,-0.000686646,0.021286,0.021286,0.0759902,-1.64839,-0.088197,0.421698,-0.0411994,-0.129092,1.67393,-0.0491345,-0.410346,-0.0353401,-0.000532632,-0.000532632,-0.000532632,-0.0167594,-0.0215478,9.79962,-0.00244478,0.00177366,-0.00158192,0.000272913,0.000910143,-5.7827e-06,0.999969,-0.00123596,0.000930786,-0.000778198
2026-05-10 15:52:36.006439,inference,,,-0.0798453,-0.018854,0.329292,1.5215,0.841583,0.191796,-0.161145,-0.720713,-1.53529,-1.08062,0,0,0,0,0,0,0,0,0,0,0,0,0,0,0,0,0,0,0,0,-0.0127792,0.136758,0.174907,1.02331,0.91268,-0.000953674,-0.139429,-0.175288,-1.04505,-0.916114,0.021286,-0.000152588,-0.000686646,-0.0226593,-0.0226593,-0.000686646,-0.000152588,-0.000686646,-0.000686646,-0.000686646,0.0818496,-1.64839,-0.0979626,0.421698,-0.0411994,-0.134951,1.67393,-0.0491345,-0.416205,-0.0411994,-0.000532632,-0.000532632,-0.000532632,-0.0167594,-0.0215478,9.79962,-0.00244478,0.00177366,-0.00158192,0.000272913,0.000910143,-5.7827e-06,0.999969,-0.00123596,0.000930786,-0.000778198
2026-05-10 15:52:36.013122,inference,,,-0.0621768,-0.018854,0.296452,1.5215,0.813788,0.191796,-0.161145,-0.717774,-1.53529,-1.09457,0,0,0,0,0,0,0,0,0,0,0,0,0,0,0,0,0,0,0,0,-0.0127792,0.136758,0.174907,1.02331,0.91268,-0.000953674,-0.139429,-0.175288,-1.04505,-0.916495,-0.000686646,-0.000152588,-0.0226593,-0.000686646,0.021286,0.021286,-0.000152588,-0.0226593,-0.000686646,-0.000686646,0.0818496,-1.64839,-0.088197,0.421698,-0.0411994,-0.129092,1.67393,-0.0491345,-0.404486,-0.0353401,-0.000532632,-0.000532632,-0.000532632,-0.0167594,-0.0215478,9.79962,-0.00244478,0.00177366,-0.00158192,0.000272913,0.000910143,-5.7827e-06,0.999969,-0.00120544,0.000930786,-0.000778198
2026-05-10 15:52:36.019778,inference,,,-0.0436787,-0.018854,0.266031,1.5215,0.78284,0.191796,-0.161145,-0.711531,-1.53529,-1.10862,0,0,0,0,0,0,0,0,0,0,0,0,0,0,0,0,0,0,0,0,-0.0127792,0.136758,0.175288,1.02331,0.91268,-0.000953674,-0.139429,-0.175288,-1.04505,-0.916495,-0.0226593,-0.000152588,0.021286,-0.000686646,0.021286,-0.000686646,-0.000152588,-0.000686646,-0.000686646,-0.000686646,0.0759902,-1.64839,-0.088197,0.421698,-0.0411994,-0.134951,1.67393,-0.0393689,-0.410346,-0.0353401,-0.000532632,-0.000532632,-0.000532632,-0.0167594,-0.0215478,9.79962,-0.00244478,0.00177366,-0.00158192,0.000272913,0.000910143,-5.7827e-06,0.999969,-0.00120544,0.000930786,-0.000778198
2026-05-10 15:52:36.026431,inference,,,-0.026447,-0.018854,0.238348,1.5215,0.748448,0.188078,-0.161145,-0.699284,-1.53529,-1.12058,0,0,0,0,0,0,0,0,0,0,0,0,0,0,0,0,0,0,0,0,-0.0127792,0.136758,0.174907,1.02331,0.912298,-0.000953674,-0.139429,-0.175288,-1.04505,-0.916495,0.021286,-0.000152588,-0.0226593,-0.000686646,-0.000686646,0.021286,-0.000152588,0.021286,0.021286,-0.000686646,0.0759902,-1.64839,-0.088197,0.415838,-0.0411994,-0.134951,1.67393,-0.0491345,-0.404486,-0.0411994,-0.000532632,-0.000532632,-0.000532632,-0.0167594,-0.0215478,9.79962,-0.00244478,0.00177366,-0.00158192,0.000272913,0.000910143,-5.7827e-06,0.999969,-0.00120544,0.000930786,-0.000778198
2026-05-10 15:52:36.033052,inference,,,-0.0184038,-0.018854,0.216559,1.5215,0.718512,0.155932,-0.161145,-0.679684,-1.53529,-1.12697,0,0,0,0,0,0,0,0,0,0,0,0,0,0,0,0,0,0,0,0,-0.0127792,0.136758,0.174907,1.02331,0.912298,-0.000953674,-0.139429,-0.175288,-1.04543,-0.916495,0.021286,0.00473022,0.021286,-0.000686646,-0.000686646,-0.000686646,-0.000152588,-0.000686646,-0.0226593,-0.000686646,0.0642715,-1.64839,-0.088197,0.421698,-0.0411994,-0.14081,1.66075,-0.0491345,-0.410346,-0.0470588,-0.000532632,-0.000532632,-0.000532632,-0.0167594,-0.0215478,9.79962,-0.00244478,0.00177366,-0.00158192,0.000272913,0.000910143,-5.7827e-06,0.999969,-0.00120544,0.000930786,-0.000778198
2026-05-10 15:52:36.039695,inference,,,-0.0274857,-0.018854,0.207914,1.5215,0.701489,0.127072,-0.161145,-0.651848,-1.53529,-1.11826,0,0,0,0,0,0,0,0,0,0,0,0,0,0,0,0,0,0,0,0,-0.0127792,0.136758,0.174907,1.02331,0.912298,-0.000953674,-0.139429,-0.175288,-1.04543,-0.916495,-0.000686646,-0.000152588,-0.000686646,-0.000686646,-0.000686646,-0.000686646,-0.000152588,-0.000686646,-0.0226593,-0.000686646,0.0642715,-1.64839,-0.0784314,0.421698,-0.0411994,-0.134951,1.66075,-0.0393689,-0.410346,-0.0470588,-0.000532632,-0.000532632,-0.000532632,-0.0167594,-0.0215478,9.79962,-0.00244478,0.00177366,-0.00158192,0.000272913,0.000910143,-5.7827e-06,0.999969,-0.00120544,0.000930786,-0.000778198
2026-05-10 15:52:36.046335,inference,,,-0.0530829,-0.018854,0.216488,1.5215,0.721346,0.115264,-0.161145,-0.638972,-1.53529,-1.09659,0,0,0,0,0,0,0,0,0,0,0,0,0,0,0,0,0,0,0,0,-0.0127792,0.136758,0.175288,1.02331,0.912298,-0.000953674,-0.139429,-0.175288,-1.04505,-0.916495,-0.0226593,-0.000152588,0.021286,0.021286,-0.000686646,-0.0226593,0.00473022,-0.000686646,-0.000686646,-0.000686646,0.0642715,-1.64839,-0.088197,0.415838,-0.0470588,-0.134951,1.67393,-0.0393689,-0.404486,-0.0411994,-0.000532632,-0.000532632,-0.000532632,-0.0167594,-0.0215478,9.79962,-0.00244478,0.00177366,-0.00158192,0.000272913,0.000910143,-5.7827e-06,0.999969,-0.00120544,0.000930786,-0.000778198
2026-05-10 15:52:36.052983,inference,,,-0.0839462,-0.018854,0.24374,1.5215,0.777961,0.123059,-0.161145,-0.644668,-1.53529,-1.0701,0,0,0,0,0,0,0,0,0,0,0,0,0,0,0,0,0,0,0,0,-0.0127792,0.136758,0.174907,1.02331,0.912298,-0.000953674,-0.139429,-0.175288,-1.04505,-0.916114,-0.0226593,0.00473022,-0.000686646,-0.0226593,-0.000686646,-0.000686646,-0.000152588,-0.044632,-0.000686646,0.021286,0.0701308,-1.64839,-0.088197,0.409979,-0.0411994,-0.134951,1.67393,-0.0393689,-0.404486,-0.0411994,-0.000532632,-0.000532632,-0.000532632,-0.0167594,-0.0215478,9.79962,-0.00244478,0.00177366,-0.00158192,0.000272913,0.000910143,-5.7827e-06,0.999969,-0.00120544,0.000930786,-0.000778198
2026-05-10 15:52:36.059649,inference,,,-0.108956,-0.018854,0.284668,1.5215,0.851572,0.14208,-0.161145,-0.650194,-1.53529,-1.04312,0,0,0,0,0,0,0,0,0,0,0,0,0,0,0,0,0,0,0,0,-0.0127792,0.136758,0.175288,1.02331,0.912298,-0.000953674,-0.139429,-0.175288,-1.04505,-0.916495,0.021286,-0.000152588,0.021286,-0.0226593,0.021286,-0.000686646,-0.000152588,0.021286,-0.000686646,-0.044632,0.0701308,-1.64839,-0.088197,0.415838,-0.0411994,-0.134951,1.67393,-0.0393689,-0.404486,-0.0411994,-0.000532632,-0.000532632,-0.000532632,-0.0167594,-0.0215478,9.79962,-0.00244478,0.00177366,-0.00158192,0.000272913,0.000910143,-5.7827e-06,0.999969,-0.00120544,0.000930786,-0.000778198
2026-05-10 15:52:36.066285,inference,,,-0.144974,-0.018854,0.313442,1.5215,0.916812,0.175244,-0.161145,-0.673028,-1.53529,-1.01156,0,0,0,0,0,0,0,0,0,0,0,0,0,0,0,0,0,0,0,0,-0.0127792,0.136758,0.174907,1.02331,0.912298,-0.000953674,-0.139429,-0.175288,-1.04505,-0.916495,-0.000686646,-0.000152588,-0.000686646,-0.000686646,-0.000686646,0.021286,-0.000152588,-0.0226593,-0.000686646,-0.000686646,0.0759902,-1.64839,-0.0979626,0.421698,-0.0470588,-0.129092,1.66075,-0.0491345,-0.404486,-0.0353401,-0.000532632,-0.000532632,-0.000532632,-0.00718261,-0.0263362,9.79962,-0.00282827,0.000431432,-0.00158192,-0.000110582,-0.000432089,-5.7827e-06,0.999969,-0.00138855,0.000228882,-0.000778198
2026-05-10 15:52:36.072853,inference,,,-0.186785,-0.018854,0.33403,1.5215,0.966887,0.191796,-0.161145,-0.729785,-1.53529,-0.94185,0,0,0,0,0,0,0,0,0,0,0,0,0,0,0,0,0,0,0,0,-0.0127792,0.136758,0.174907,1.02483,0.912298,-0.000953674,-0.139429,-0.17567,-1.0462,-0.916495,-0.000686646,-0.000152588,-0.000686646,0.131149,-0.000686646,0.021286,-0.000152588,-0.08858,-0.110553,-0.000686646,0.0759902,-1.64839,-0.0979626,1.48226,-0.00604248,-0.070497,1.25205,-1.1429,-1.41231,-0.0353401,-0.000532632,-0.000532632,-0.000532632,-0.00718261,-0.0263362,9.79962,-0.00282827,0.000431432,-0.00158192,-0.000110582,-0.000432089,-5.7827e-06,0.999969,-0.00138855,0.000228882,-0.000778198
2026-05-10 15:52:36.079445,inference,,,-0.202857,-0.018854,0.372859,1.5215,1.02456,0.191796,-0.161145,-0.772226,-1.53529,-0.855713,0,0,0,0,0,0,0,0,0,0,0,0,0,0,0,0,0,0,0,0,-0.0154495,0.135995,0.181392,1.0584,0.917257,-0.00209808,-0.140192,-0.197032,-1.07862,-0.918403,-0.440148,-0.0587475,0.966126,4.2401,0.570613,-0.154498,-0.112459,-3.05493,-4.08766,-0.264364,-0.369329,-2.65035,1.11299,2.80064,0.017395,-0.211124,0.421469,-3.3695,-2.80687,0.087709,-0.000532632,-0.000532632,-0.000532632,-0.00718261,-0.0263362,9.79962,-0.00282827,0.000431432,-0.00158192,-0.000110582,-0.000432089,-5.7827e-06,0.999969,-0.00138855,0.000228882,-0.000778198
2026-05-10 15:52:36.086065,inference,,,-0.202857,-0.018854,0.478824,1.5215,1.08035,0.191796,-0.161145,-0.754366,-1.53529,-0.856811,0,0,0,0,0,0,0,0,0,0,0,0,0,0,0,0,0,0,0,0,-0.0188828,0.133707,0.212672,1.09426,0.922979,-0.00629425,-0.1421,-0.246624,-1.11944,-0.919547,-0.440148,-0.263829,4.45983,5.51454,0.900208,-0.571984,-0.273594,-7.14191,-5.88945,-0.198443,-0.117373,-2.75583,3.01732,1.12483,-0.205264,-0.668162,0.170978,-3.34997,-1.03145,0.275212,-0.000532632,-0.000532632,-0.000532632,-0.00718261,-0.0263362,9.79962,-0.00282827,0.000431432,-0.00158192,-0.000110582,-0.000432089,-5.7827e-06,0.999969,-0.00138855,0.000228882,-0.000778198
2026-05-10 15:52:36.092695,inference,,,-0.190514,-0.018854,0.644697,1.5215,1.11273,0.161662,-0.161145,-0.728037,-1.53529,-0.886436,0,0,0,0,0,0,0,0,0,0,0,0,0,0,0,0,0,0,0,0,-0.0188828,0.131418,0.285916,1.13279,0.917257,-0.0101089,-0.145914,-0.314145,-1.16674,-0.909247,-0.044632,-0.366369,8.54681,4.8114,-0.528038,-0.593956,-0.459144,-7.84505,-5.8455,1.09796,0.445137,-2.28121,2.47044,-0.0294807,0.146304,-0.720897,0.118244,-1.47494,0.767406,-0.293156,0.062318,-0.227438,0.155,1.30486,2.162,11.7773,-0.00254065,-0.000719053,-0.000623179,0.00017704,-0.00158257,0.000952954,0.999969,-0.001297,-0.00038147,-0.000320435
2026-05-10 15:52:36.099317,inference,,,-0.157134,-0.018854,0.751776,1.5215,1.09801,0.119011,-0.161145,-0.750522,-1.53529,-0.909115,0,0,0,0,0,0,0,0,0,0,0,0,0,0,0,0,0,0,0,0,-0.0196457,0.127985,0.34886,1.17475,0.922598,-0.021553,-0.150492,-0.361829,-1.20375,-0.919165,0.131149,-0.410315,7.58,5.51454,0.50469,-1.56077,-0.595865,-6.21904,-4.94461,-0.945524,0.50959,-2.80856,0.820019,-0.492378,0.380682,-0.0587776,0.25008,-1.00618,0.872877,-0.9084,0.062318,-0.227438,0.155,1.30486,2.162,11.7773,-0.00254065,-0.000719053,-0.000623179,0.00017704,-0.00158257,0.000952954,0.999969,-0.001297,-0.00038147,-0.000320435
2026-05-10 15:52:36.105909,inference,,,-0.124423,-0.018854,0.70792,1.5215,1.01957,0.119989,-0.161145,-0.766647,-1.53529,-0.912659,0,0,0,0,0,0,0,0,0,0,0,0,0,0,0,0,0,0,0,0,-0.0146866,0.12417,0.374037,1.20565,0.926031,-0.0333793,-0.154688,-0.395399,-1.22892,-0.934806,0.658504,-0.556802,4.87732,5.16297,0.526662,-1.91234,-0.664225,-5.82353,-4.37331,-2.17601,-0.152529,-2.91403,0.351262,-1.16036,0.146304,0.978347,0.408286,-1.39681,0.802564,-0.392767,-0.042078,-2.05333,-0.197609,4.00077,-0.768548,16.0486,-0.00321177,-0.0150044,-0.0009108,-0.000494077,-0.0158679,0.000665333,0.999969,-0.00160217,-0.0075227,-0.000473022
2026-05-10 15:52:36.112553,inference,,,-0.0947771,-0.018854,0.606228,1.5215,0.952745,0.147041,-0.161145,-0.755766,-1.53529,-0.93359,0,0,0,0,0,0,0,0,0,0,0,0,0,0,0,0,0,0,0,0,-0.00476837,0.120355,0.385481,1.219,0.924124,-0.0368126,-0.159266,-0.425536,-1.24609,-0.947394,1.40558,-0.600747,2.63607,2.89975,-0.0666046,-0.901579,-0.68864,-5.09842,-3.23072,-2.11009,-1.17208,-2.8613,0.761425,-0.591989,0.152164,1.17757,0.447837,-1.59213,0.374823,-0.199405,-0.042078,-2.05333,-0.197609,4.00077,-0.768548,16.0486,-0.00321177,-0.0150044,-0.0009108,-0.000494077,-0.0158679,0.000665333,0.999969,-0.00160217,-0.0075227,-0.000473022
2026-05-10 15:52:36.119181,inference,,,-0.0873584,-0.018854,0.52648,1.5215,0.92266,0.169173,-0.161145,-0.713612,-1.53529,-0.949372,0,0,0,0,0,0,0,0,0,0,0,0,0,0,0,0,0,0,0,0,-0.00591278,0.11654,0.395781,1.22587,0.926413,-0.0398643,-0.162699,-0.44995,-1.25753,-0.958839,0.0652313,-0.634928,2.02083,1.55939,0.262991,-0.571984,-0.644694,-4.30739,-2.28588,-1.95628,-1.18379,-2.92721,1.23018,0.73225,0.216617,0.562325,0.513755,-1.46517,-0.345891,-0.322454,0.346748,-1.79979,-0.240221,-3.13885,-0.0454898,-2.99998,0.000431432,-0.0375351,-0.00359526,0.00314912,-0.0383986,-0.00201913,0.999817,0.000198364,-0.0187839,-0.00175476
2026-05-10 15:52:36.125943,inference,,,-0.0997641,-0.018854,0.49228,1.5215,0.921107,0.144932,-0.161145,-0.658355,-1.53529,-0.943233,0,0,0,0,0,0,0,0,0,0,0,0,0,0,0,0,0,0,0,0,-0.0082016,0.113107,0.411421,1.24228,0.932518,-0.0467308,-0.166132,-0.472458,-1.27089,-0.974479,-0.176471,-0.610514,2.50423,2.48226,0.812312,-0.989472,-0.556802,-3.84596,-2.19799,-2.41772,-0.726757,-2.71627,1.14229,1.19515,-0.0294807,0.749828,0.474204,-1.28939,-0.879103,-0.187686,0.0452738,-0.198674,0.148609,-10.652,1.79328,-2.95689,0.00177366,-0.0418494,-0.00302002,0.00449136,-0.042713,-0.00144389,0.999756,0.000869751,-0.0209201,-0.00151062
2026-05-10 15:52:36.132427,inference,,,-0.111218,-0.018854,0.482258,1.5215,0.928305,0.103207,-0.161145,-0.61588,-1.53529,-0.935129,0,0,0,0,0,0,0,0,0,0,0,0,0,0,0,0,0,0,0,0,-0.0131607,0.107385,0.432402,1.27012,0.932518,-0.0532158,-0.169947,-0.496872,-1.3014,-0.992408,-0.637904,-0.693523,2.48226,3.22934,0.087204,-0.813688,-0.459144,-3.09888,-3.62623,-2.28588,-0.381048,-2.51852,0.732129,0.298649,-0.158388,1.05452,0.434653,-1.22103,-0.175967,0.169742,0.115581,0.464996,0.241287,-9.723,-1.00798,14.3487,0.0012943,-0.0392608,-0.0012943,0.00401199,-0.0401244,0.000281838,0.999786,0.000656128,-0.0196384,-0.00062561
2026-05-10 15:52:36.138785,inference,,,-0.111412,-0.018854,0.469945,1.5215,0.924674,0.0812879,-0.161145,-0.581937,-1.53529,-0.929541,0,0,0,0,0,0,0,0,0,0,0,0,0,0,0,0,0,0,0,0,-0.0112534,0.102045,0.444229,1.285,0.930229,-0.0551231,-0.171474,-0.514039,-1.31857,-0.998893,0.131149,-0.805829,2.06478,2.6141,-0.242389,-0.440148,-0.341955,-2.96704,-3.01099,-1.40696,-0.568551,-2.21529,0.605173,0.0759902,0.18146,0.94905,0.434653,-1.08431,0.322087,0.105287,0.115581,0.464996,0.241287,-9.723,-1.00798,14.3487,0.0012943,-0.0392608,-0.0012943,0.00401199,-0.0401244,0.000281838,0.999786,0.000656128,-0.0196384,-0.00062561
2026-05-10 15:52:36.145199,inference,,,-0.102282,-0.018854,0.484835,1.5215,0.924935,0.0648905,-0.161145,-0.590383,-1.53529,-0.933305,0,0,0,0,0,0,0,0,0,0,0,0,0,0,0,0,0,0,0,0,-0.0131607,0.0951782,0.460251,1.30407,0.935188,-0.0528343,-0.173381,-0.536545,-1.33497,-1.00729,-0.264364,-0.854658,2.0428,2.46029,0.50469,0.175095,-0.224766,-2.81323,-2.21996,-1.12131,-0.697459,-2.16256,0.487983,0.134584,0.204898,0.603341,0.381919,-0.654612,0.0525527,-0.422065,0.0399474,1.49619,-0.0793643,-6.59613,-2.81323,15.2489,0.00225303,-0.0260301,-0.0009108,0.00497073,-0.0268936,0.000665333,0.999908,0.00114441,-0.0129854,-0.000411987
2026-05-10 15:52:36.151564,inference,,,-0.0976721,-0.018854,0.523642,1.5215,0.930887,0.0543665,-0.161145,-0.624509,-1.53529,-0.934272,0,0,0,0,0,0,0,0,0,0,0,0,0,0,0,0,0,0,0,0,-0.015831,0.0902191,0.472458,1.31857,0.939003,-0.0513084,-0.174144,-0.552186,-1.35252,-1.01797,-0.3962,-0.859541,2.06478,2.41634,0.614558,0.219045,-0.161288,-2.63745,-2.74731,-1.62669,-0.591989,-2.07027,0.361028,0.0818496,-0.0236213,0.298649,0.408286,-0.31281,0.0701308,-0.381048,0.0399474,1.49619,-0.0793643,-6.59613,-2.81323,15.2489,0.00225303,-0.0260301,-0.0009108,0.00497073,-0.0268936,0.000665333,0.999908,0.00114441,-0.0129854,-0.000411987
2026-05-10 15:52:36.158093,inference,,,-0.0985245,-0.018854,0.58141,1.5215,0.94181,0.0595665,-0.161145,-0.67803,-1.53529,-0.93818,0,0,0,0,0,0,0,0,0,0,0,0,0,0,0,0,0,0,0,0,-0.021553,0.0856414,0.485046,1.33002,0.937858,-0.0486381,-0.175288,-0.566682,-1.36358,-1.02903,-0.901579,-0.771649,2.10872,1.99886,-0.0226593,0.394827,-0.156405,-2.46166,-2.04418,-1.80247,-0.340032,-2.08345,0.234072,0.0935683,0.0408325,0.169742,0.447837,0.0289917,0.175601,-0.105653,0.026099,1.86371,-0.326508,-3.22504,-3.51235,16.4269,0.00359526,-0.0096355,-0.00340352,0.00631296,-0.010499,-0.00182738,0.999969,0.0018158,-0.00480658,-0.00169373
2026-05-10 15:52:36.164527,inference,,,-0.100589,-0.018854,0.624724,1.5215,0.938953,0.0724293,-0.161145,-0.715124,-1.53529,-0.93637,0,0,0,0,0,0,0,0,0,0,0,0,0,0,0,0,0,0,0,0,-0.0276573,0.0818267,0.497635,1.33269,0.940147,-0.0463493,-0.176051,-0.582322,-1.36282,-1.0359,-0.923552,-0.673991,2.13069,0.856258,0.262991,0.241018,-0.171053,-2.57153,-0.46212,-1.38499,-0.0119019,-2.09664,0.107119,0.615061,0.210757,0.087709,0.540125,0.624704,-0.498238,0.017395,-0.0996044,1.63254,-0.325443,0.605733,-1.5826,8.79882,0.0027324,0.00848482,-0.00666341,0.00545009,0.0076213,-0.00508728,0.999969,0.00138855,0.00428784,-0.00331122
2026-05-10 15:52:36.170851,inference,,,-0.108881,-0.018854,0.631303,1.5215,0.920794,0.0843058,-0.161145,-0.714117,-1.53529,-0.928273,0,0,0,0,0,0,0,0,0,0,0,0,0,0,0,0,0,0,0,0,-0.0322349,0.0776306,0.51709,1.34031,0.946251,-0.0429161,-0.17834,-0.601777,-1.36397,-1.04543,-0.593956,-0.542153,2.39437,0.944154,0.724422,0.460745,-0.263829,-2.39574,-0.264364,-1.23117,-0.0880752,-2.07027,-0.195621,1.12483,0.0408325,0.140443,0.711512,1.25948,-1.60568,-0.129092,-0.210394,0.56087,-0.114518,7.75972,-0.811644,6.24178,0.000431432,0.0150046,-0.00810152,0.00314912,0.0141411,-0.00652538,0.999939,0.000259399,0.00749218,-0.00407416
2026-05-10 15:52:36.177258,inference,,,-0.111345,-0.018854,0.626184,1.5215,0.906026,0.0902107,-0.161145,-0.702675,-1.53529,-0.927309,0,0,0,0,0,0,0,0,0,0,0,0,0,0,0,0,0,0,0,0,-0.0360496,0.0753418,0.531586,1.34756,0.949684,-0.0368126,-0.180629,-0.613985,-1.36511,-1.05535,-0.659877,-0.434729,2.41634,1.11993,0.592586,0.834285,-0.35172,-2.11009,-0.220416,-1.58274,-0.14081,-2.08345,-0.449531,1.08382,-0.134951,0.00567627,0.777433,1.54269,-1.78146,-0.0587776,-0.210394,0.56087,-0.114518,7.75972,-0.811644,6.24178,0.000431432,0.0150046,-0.00810152,0.00314912,0.0141411,-0.00652538,0.999939,0.000259399,0.00749218,-0.00407416
2026-05-10 15:52:36.183649,inference,,,-0.109787,-0.018854,0.615156,1.5215,0.894884,0.0865927,-0.161145,-0.680737,-1.53529,-0.927329,0,0,0,0,0,0,0,0,0,0,0,0,0,0,0,0,0,0,0,0,-0.0440605,0.0726715,0.54799,1.35481,0.950447,-0.0303276,-0.183681,-0.623903,-1.36931,-1.06794,-0.989472,-0.371252,2.08675,0.944154,0.175095,1.05402,-0.371252,-1.40696,-0.484093,-1.56077,-0.0236213,-2.00435,-0.547189,0.990067,-0.0177612,-0.258,0.856534,1.60128,-1.70529,0.204898,0.00266316,0.251939,0.130495,9.28726,0.787711,7.40059,0.000335558,0.0179767,-0.00723865,0.00305325,0.0171132,-0.00566252,0.999939,0.000198364,0.00898755,-0.00364691
2026-05-10 15:52:36.190101,inference,,,-0.101376,-0.018854,0.59938,1.5215,0.884302,0.0776465,-0.161145,-0.655685,-1.53529,-0.926234,0,0,0,0,0,0,0,0,0,0,0,0,0,0,0,0,0,0,0,0,-0.0505455,0.0703827,0.559053,1.3613,0.952354,-0.0234604,-0.185588,-0.629625,-1.37579,-1.07366,-1.07736,-0.376135,1.86702,1.03204,0.306936,1.07599,-0.371252,-1.01144,-0.879606,-1.14328,0.152164,-1.89888,-0.478828,0.94905,0.0818496,-0.381048,0.856534,1.54269,-1.41817,0.169742,0.00266316,0.251939,0.130495,9.28726,0.787711,7.40059,0.000335558,0.0179767,-0.00723865,0.00305325,0.0171132,-0.00566252,0.999939,0.000198364,0.00898755,-0.00364691
2026-05-10 15:52:36.196495,inference,,,-0.0930858,-0.018854,0.582417,1.5215,0.876963,0.0675522,-0.161145,-0.629922,-1.53529,-0.924128,0,0,0,0,0,0,0,0,0,0,0,0,0,0,0,0,0,0,0,0,-0.0604637,0.0680938,0.567445,1.36854,0.955024,-0.0150681,-0.187495,-0.631533,-1.3838,-1.07862,-1.51682,-0.385901,1.49348,1.18585,0.372854,1.29572,-0.298009,-0.440148,-1.23117,-0.879606,0.486152,-1.79341,-0.342107,0.802564,0.0408325,-0.486518,0.777433,1.38644,-1.03145,-0.0236213,-0.108126,0.0857538,0.181632,6.52908,0.0646434,10.4652,-0.00100667,0.0190313,-0.00608798,0.00171102,0.0181678,-0.00451185,0.999939,-0.000473022,0.00953686,-0.00300604
2026-05-10 15:52:36.202745,inference,,,-0.0878034,-0.018854,0.566205,1.5215,0.874099,0.0587193,-0.161145,-0.605136,-1.53529,-0.92134,0,0,0,0,0,0,0,0,0,0,0,0,0,0,0,0,0,0,0,0,-0.0673302,0.0646606,0.573549,1.37503,0.95655,-0.00858307,-0.188258,-0.631151,-1.39105,-1.08396,-1.14328,-0.488442,1.14191,1.09796,0.284963,1.16388,-0.200351,-0.08858,-1.23117,-0.901579,0.638499,-1.58247,-0.185854,0.679514,-0.0294807,-0.457222,0.711512,1.20089,-0.709178,-0.164248,-0.0889517,-0.0122505,0.255135,5.79646,-0.802067,10.0534,-0.00177366,0.0193189,-0.00359526,0.000944029,0.0184554,-0.00201913,0.999939,-0.000869751,0.00965893,-0.00178528
2026-05-10 15:52:36.208885,inference,,,-0.0804509,-0.018854,0.553194,1.5215,0.876706,0.048028,-0.161145,-0.577394,-1.53529,-0.920982,0,0,0,0,0,0,0,0,0,0,0,0,0,0,0,0,0,0,0,0,-0.0715263,0.0597015,0.581941,1.38342,0.956169,0.00286102,-0.189021,-0.630388,-1.39715,-1.09388,-0.637904,-0.600747,1.03204,1.03204,0.0432587,1.16388,-0.0636303,0.0652313,-0.879606,-1.16526,0.298649,-1.37153,-0.088197,0.603341,0.0642715,-0.304876,0.606043,1.03487,-0.744335,-0.0939345,-0.0271643,0.0580569,0.238091,5.19789,0.31364,10.0438,-0.00177366,0.0198942,-0.00100667,0.000944029,0.0190307,0.00056946,0.999939,-0.000900269,0.00996411,-0.00050354
2026-05-10 15:52:36.215122,inference,,,-0.0732564,-0.018854,0.546154,1.5215,0.881356,0.032776,-0.161145,-0.55097,-1.53529,-0.917761,0,0,0,0,0,0,0,0,0,0,0,0,0,0,0,0,0,0,0,0,-0.0741974,0.0555053,0.588426,1.38914,0.957313,0.0082016,-0.18864,-0.630007,-1.40364,-1.10037,-0.506066,-0.68864,1.07599,0.988099,0.131149,0.944154,0.0193787,0.0652313,-1.01144,-1.14328,0.128725,-1.20014,-0.146792,0.585763,0.0818496,-0.205264,0.566492,1.03487,-0.720897,0.0291138,-0.0271643,0.0580569,0.238091,5.19789,0.31364,10.0438,-0.00177366,0.0198942,-0.00100667,0.000944029,0.0190307,0.00056946,0.999939,-0.000900269,0.00996411,-0.00050354
2026-05-10 15:52:36.221352,inference,,,-0.0661513,-0.018854,0.540253,1.5215,0.883345,0.0185714,-0.161145,-0.528371,-1.53529,-0.913463,0,0,0,0,0,0,0,0,0,0,0,0,0,0,0,0,0,0,0,0,-0.0764862,0.0490203,0.595292,1.3941,0.957695,0.0112534,-0.188258,-0.629625,-1.40974,-1.10456,-0.374227,-0.781415,1.09796,0.922181,0.087204,0.834285,0.068208,0.0652313,-0.989472,-0.835661,0.0291138,-1.00238,-0.293279,0.579904,0.0408325,-0.0880752,0.540125,1.07393,-0.638865,0.0115356,-0.0154463,-0.188021,0.204002,5.86828,0.390255,13.4963,-0.00225303,0.0188396,0.0009108,0.000464661,0.017976,0.00248693,0.999939,-0.00114441,0.00941479,0.000473022
2026-05-10 15:52:36.227604,inference,,,-0.0596344,-0.018854,0.532269,1.5215,0.882983,0.010429,-0.161145,-0.511633,-1.53529,-0.913299,0,0,0,0,0,0,0,0,0,0,0,0,0,0,0,0,0,0,0,0,-0.078012,0.0440598,0.603303,1.39906,0.958076,0.0177383,-0.187495,-0.626192,-1.41699,-1.10952,-0.220416,-0.82536,1.03204,0.636531,0.0432587,0.812312,0.0633252,0.438772,-0.923552,-0.659877,-0.070497,-0.870542,-0.488594,0.667796,0.0408325,0.122865,0.606043,0.898147,-0.57441,-0.175967,-0.0154463,-0.188021,0.204002,5.86828,0.390255,13.4963,-0.00225303,0.0188396,0.0009108,0.000464661,0.017976,0.00248693,0.999939,-0.00114441,0.00941479,0.000473022
2026-05-10 15:52:36.233864,inference,,,-0.0561405,-0.018854,0.511644,1.5215,0.883627,0.0033927,-0.161145,-0.489553,-1.53529,-0.915177,0,0,0,0,0,0,0,0,0,0,0,0,0,0,0,0,0,0,0,0,-0.0799194,0.0391006,0.606355,1.40364,0.958076,0.0230789,-0.187495,-0.621615,-1.42119,-1.11448,-0.286337,-0.820478,0.614558,0.724422,-0.000686646,0.900208,0.0340271,0.702449,-0.791716,-0.747768,-0.105653,-0.79144,-0.43,0.697093,0.0349731,0.175601,0.63241,0.712597,-0.591989,-0.216984,-0.156063,-0.866606,0.143282,5.7773,0.94094,13.8076,-0.00330764,0.0116487,0.00254065,-0.00058995,0.0107851,0.00411679,0.999969,-0.00166321,0.00581372,0.001297
2026-05-10 15:52:36.240181,inference,,,-0.0544463,-0.018854,0.49264,1.5215,0.884577,-0.00159453,-0.161145,-0.472869,-1.53529,-0.916358,0,0,0,0,0,0,0,0,0,0,0,0,0,0,0,0,0,0,0,0,-0.0810638,0.034523,0.607881,1.4086,0.957695,0.0291824,-0.187495,-0.615893,-1.42424,-1.11944,-0.220416,-0.776532,0.284963,0.79034,-0.000686646,0.966126,0.00473022,0.900208,-0.571984,-0.835661,-0.111513,-0.765072,-0.293279,0.6092,0.0291138,0.169742,0.658777,0.429389,-0.668162,-0.14667,-0.129432,-0.443689,-0.0250337,2.6983,0.773346,9.29683,-0.00436225,0.00484162,0.00302002,-0.00164456,0.0039781,0.00459616,0.999969,-0.00218207,0.00242615,0.00154114
2026-05-10 15:52:36.246607,inference,,,-0.0513426,-0.018854,0.470767,1.5215,0.88679,-0.00824095,-0.161145,-0.454407,-1.53529,-0.916669,0,0,0,0,0,0,0,0,0,0,0,0,0,0,0,0,0,0,0,0,-0.0818267,0.0291824,0.607881,1.41203,0.957695,0.0383377,-0.187495,-0.606737,-1.42767,-1.12478,-0.154498,-0.683757,0.0652313,0.438772,-0.044632,0.900208,-0.0050354,1.09796,-0.46212,-0.659877,-0.134951,-0.765072,-0.0784314,0.685374,0.0291138,0.140443,0.63241,0.155947,-0.832227,-0.0763564,-0.105996,-0.880454,-0.0964086,-0.0837971,0.265756,5.6528,-0.00570449,-0.00225303,0.00186954,-0.00298679,-0.00311655,0.00344567,0.999969,-0.00285345,-0.00111389,0.000961304
2026-05-10 15:52:36.252850,inference,,,-0.049359,-0.018854,0.453124,1.5215,0.888497,-0.0151245,-0.161145,-0.435649,-1.53529,-0.912945,0,0,0,0,0,0,0,0,0,0,0,0,0,0,0,0,0,0,0,0,-0.0833526,0.0257492,0.607881,1.4147,0.957695,0.0436783,-0.187495,-0.600252,-1.42996,-1.1286,-0.242389,-0.581216,-0.000686646,0.526662,0.021286,0.87823,-0.0050354,1.11993,-0.418172,-0.659877,-0.105653,-0.765072,0.0192261,0.749828,0.00567627,0.193179,0.63241,0.0289917,-0.873244,-0.111513,-0.105996,-0.880454,-0.0964086,-0.0837971,0.265756,5.6528,-0.00570449,-0.00225303,0.00186954,-0.00298679,-0.00311655,0.00344567,0.999969,-0.00285345,-0.00111389,0.000961304
2026-05-10 15:52:36.259061,inference,,,-0.0490813,-0.018854,0.442354,1.5215,0.887856,-0.0199836,-0.161145,-0.419305,-1.53529,-0.906659,0,0,0,0,0,0,0,0,0,0,0,0,0,0,0,0,0,0,0,0,-0.08526,0.0234604,0.607881,1.41775,0.957695,0.0497833,-0.187495,-0.592241,-1.43378,-1.13279,-0.286337,-0.464027,-0.0226593,0.50469,-0.000686646,1.01007,-0.000152588,1.29572,-0.550011,-0.68185,-0.0411994,-0.830991,0.0387573,0.73225,-0.0177612,0.163882,0.619227,-0.166323,-0.832227,-0.105653,0.0537959,-0.837843,-0.0772338,-1.76934,0.888268,7.51551,-0.00532099,-0.0104984,0.00119842,-0.0026033,-0.0113619,0.00277456,0.999969,-0.00263983,-0.00526434,0.00062561
2026-05-10 15:52:36.265293,inference,,,-0.04799,-0.018854,0.438061,1.5215,0.88075,-0.0248754,-0.161145,-0.409636,-1.53529,-0.8994,0,0,0,0,0,0,0,0,0,0,0,0,0,0,0,0,0,0,0,0,-0.0867859,0.021553,0.607499,1.42081,0.956932,0.0547424,-0.187495,-0.583848,-1.43873,-1.13622,-0.286337,-0.346838,-0.044632,0.482717,-0.044632,0.834285,0.00961304,1.33967,-0.747768,-0.659877,0.017395,-0.844175,0.0289917,0.708813,-0.000183105,0.152164,0.619227,-0.332341,-0.644724,-0.0763564,0.0537959,-0.837843,-0.0772338,-1.76934,0.888268,7.51551,-0.00532099,-0.0104984,0.00119842,-0.0026033,-0.0113619,0.00277456,0.999969,-0.00263983,-0.00526434,0.00062561
2026-05-10 15:52:36.271462,inference,,,-0.0485634,-0.018854,0.437781,1.5215,0.863395,-0.0280017,-0.161145,-0.404384,-1.53529,-0.89375,0,0,0,0,0,0,0,0,0,0,0,0,0,0,0,0,0,0,0,0,-0.0932708,0.0200272,0.607499,1.42462,0.957313,0.0597015,-0.187495,-0.57393,-1.4456,-1.13928,-0.747768,-0.224766,-0.0226593,0.50469,-0.000686646,0.856258,0.00473022,1.2298,-0.879606,-0.3962,0.228335,-0.910094,-0.0100708,0.661936,0.0115356,0.18146,0.619227,-0.478828,-0.416205,-0.111513,0.12943,-0.808016,-0.0559264,-3.38785,0.347159,8.59292,-0.00397876,-0.0185519,0.000623179,-0.00126107,-0.0194155,0.00219931,0.999939,-0.00199896,-0.00929272,0.000320435
2026-05-10 15:52:36.277989,inference,,,-0.0482894,-0.018854,0.43898,1.5215,0.835887,-0.0312336,-0.161145,-0.40271,-1.53529,-0.890487,0,0,0,0,0,0,0,0,0,0,0,0,0,0,0,0,0,0,0,0,-0.0963226,0.0192642,0.607118,1.4292,0.956932,0.0661865,-0.187114,-0.564393,-1.45399,-1.14195,-0.3962,-0.102693,-0.044632,0.570613,-0.044632,0.812312,0.0193787,1.2298,-1.01144,-0.330282,0.357244,-0.976012,-0.0393689,0.585763,-0.0177612,0.204898,0.606043,-0.517892,-0.211124,-0.222843,0.161392,-0.664203,-0.0452738,-5.02072,0.246603,7.60649,-0.00234891,-0.026126,0.000431432,0.000368787,-0.0269895,0.00200757,0.999908,-0.00117493,-0.013077,0.000198364
2026-05-10 15:52:36.284179,inference,,,-0.0456601,-0.018854,0.434522,1.5215,0.797579,-0.0361247,-0.161145,-0.402164,-1.53529,-0.894089,0,0,0,0,0,0,0,0,0,0,0,0,0,0,0,0,0,0,0,0,-0.0978485,0.0192642,0.605974,1.43378,0.95655,0.0703827,-0.187114,-0.558289,-1.45972,-1.14462,-0.286337,-0.0294501,-0.132525,0.702449,-0.0666046,0.746394,0.0144958,1.03204,-0.9675,-0.3962,0.251774,-1.01556,-0.0393689,0.450996,0.00567627,0.251774,0.606043,-0.508126,-0.0822158,-0.240421,0.161392,-0.664203,-0.0452738,-5.02072,0.246603,7.60649,-0.00234891,-0.026126,0.000431432,0.000368787,-0.0269895,0.00200757,0.999908,-0.00117493,-0.013077,0.000198364
2026-05-10 15:52:36.290419,inference,,,-0.041226,-0.018854,0.422747,1.5215,0.745618,-0.0436569,-0.161145,-0.405968,-1.53529,-0.914397,0,0,0,0,0,0,0,0,0,0,0,0,0,0,0,0,0,0,0,0,-0.0997558,0.0192642,0.605974,1.43607,0.956169,0.0772491,-0.187114,-0.552186,-1.46391,-1.14652,-0.308309,-0.000152588,-0.0226593,0.438772,-0.0226593,0.834285,0.0242615,1.03204,-0.791716,-0.352255,0.175601,-0.976012,-0.0589001,0.427558,0.00567627,0.286931,0.619227,-0.488594,-0.0529182,-0.216984,0.119842,-0.519325,-0.222112,-5.65279,-0.758971,7.07498,-0.0012943,-0.0297692,-0.00139017,0.0014234,-0.0306327,0.000185965,0.999878,-0.00062561,-0.0149081,-0.000686646
2026-05-10 15:52:36.296510,inference,,,-0.0439393,-0.018854,0.404383,1.5215,0.685936,-0.0502489,-0.150912,-0.426062,-1.53529,-0.959672,0,0,0,0,0,0,0,0,0,0,0,0,0,0,0,0,0,0,0,0,-0.1009,0.0192642,0.605974,1.43835,0.956169,0.0814453,-0.187114,-0.547227,-1.46849,-1.14881,-0.220416,0.00961304,-0.044632,0.372854,-0.000686646,0.768367,0.0193787,0.87823,-0.725795,-0.330282,0.122865,-0.976012,-0.107728,0.50959,-0.0119019,0.240056,0.592859,-0.439765,-0.0763564,-0.222843,0.0729706,-0.283897,-0.430906,-4.77172,-1.56344,10.4987,-0.000335558,-0.0331249,-0.00522512,0.00238214,-0.0339884,-0.00364898,0.999847,-0.000228882,-0.016556,-0.00260931
2026-05-10 15:52:36.302716,inference,,,-0.0578343,-0.018854,0.377738,1.5215,0.623184,-0.0427075,-0.143241,-0.455069,-1.53529,-1.00287,0,0,0,0,0,0,0,0,0,0,0,0,0,0,0,0,0,0,0,0,-0.1009,0.0192642,0.605211,1.44179,0.956169,0.0860229,-0.186732,-0.542649,-1.4723,-1.15072,-0.0666046,0.00473022,-0.08858,0.438772,0.021286,0.746394,0.0340271,0.746394,-0.68185,-0.330282,0.0291138,-0.976012,-0.0979626,0.50373,-0.0236213,0.240056,0.566492,-0.390936,-0.105653,-0.222843,0.0729706,-0.283897,-0.430906,-4.77172,-1.56344,10.4987,-0.000335558,-0.0331249,-0.00522512,0.00238214,-0.0339884,-0.00364898,0.999847,-0.000228882,-0.016556,-0.00260931
2026-05-10 15:52:36.308932,inference,,,-0.073443,-0.018854,0.354024,1.5215,0.566987,-0.0210096,-0.161145,-0.482041,-1.53529,-1.01199,0,0,0,0,0,0,0,0,0,0,0,0,0,0,0,0,0,0,0,0,-0.101663,0.0192642,0.60254,1.44484,0.956169,0.0921264,-0.186351,-0.536927,-1.47574,-1.15377,-0.132525,0.00473022,-0.374227,0.372854,-0.044632,0.702449,0.0584424,0.702449,-0.484093,-0.330282,-0.0177612,-0.976012,0.0192261,0.486152,-0.0411994,0.204898,0.540125,-0.351874,-0.175967,-0.187686,0.0356864,-0.0580569,-0.564066,-4.47483,-0.64405,11.4612,0.000239684,-0.0342754,-0.0104984,0.00295738,-0.0351389,-0.00892223,0.999817,4.57764e-05,-0.0171359,-0.00523382
2026-05-10 15:52:36.315221,inference,,,-0.0858103,-0.018854,0.346515,1.5215,0.528585,-0.00429792,-0.161145,-0.495097,-1.53529,-1.00159,0,0,0,0,0,0,0,0,0,0,0,0,0,0,0,0,0,0,0,0,-0.101663,0.0196457,0.599489,1.44827,0.956169,0.0963226,-0.185969,-0.531968,-1.47879,-1.15606,-0.000686646,0.0144958,-0.352255,0.438772,0.021286,0.592586,0.0340271,0.614558,-0.418172,-0.330282,-0.0646369,-1.00238,0.12665,0.439277,-0.0294807,0.304509,0.592859,-0.303044,-0.293156,-0.199405,-0.062318,0.219981,-0.545957,-4.96325,0.117316,10.1731,0.000239684,-0.0331249,-0.0159632,0.00295738,-0.0339884,-0.014387,0.999817,1.52588e-05,-0.0165255,-0.00801098
2026-05-10 15:52:36.321506,inference,,,-0.0987167,-0.018854,0.355112,1.5215,0.50681,0.004182,-0.161145,-0.497187,-1.53529,-0.98789,0,0,0,0,0,0,0,0,0,0,0,0,0,0,0,0,0,0,0,0,-0.101663,0.0196457,0.5972,1.45094,0.955787,0.100137,-0.185969,-0.528535,-1.48032,-1.15873,-0.0226593,0.0291443,-0.308309,0.438772,-0.0226593,0.614558,-0.000152588,0.570613,-0.286337,-0.418172,-0.0822158,-1.02875,0.116885,0.392401,-0.0470588,0.339666,0.606043,-0.273747,-0.351751,-0.170108,-0.0814948,0.412798,-0.516129,-4.16837,-0.0933739,10.6999,-0.000623179,-0.0291939,-0.0214282,0.00209451,-0.0300574,-0.019852,0.999817,-0.000442505,-0.0146029,-0.0106966
2026-05-10 15:52:36.327895,inference,,,-0.1154,-0.018854,0.366923,1.5215,0.491548,0.0143822,-0.161145,-0.503991,-1.53529,-0.977832,0,0,0,0,0,0,0,0,0,0,0,0,0,0,0,0,0,0,0,0,-0.102045,0.0200272,0.596055,1.45361,0.955787,0.103952,-0.185969,-0.526246,-1.48184,-1.16102,-0.0666046,0.0535595,-0.264364,0.416799,-0.044632,0.614558,-0.0050354,0.416799,-0.264364,-0.418172,-0.0587776,-1.02875,0.107119,0.374823,-0.0294807,0.327946,0.606043,-0.215153,-0.386908,-0.117373,-0.0814948,0.412798,-0.516129,-4.16837,-0.0933739,10.6999,-0.000623179,-0.0291939,-0.0214282,0.00209451,-0.0300574,-0.019852,0.999817,-0.000442505,-0.0146029,-0.0106966
2026-05-10 15:52:36.334236,inference,,,-0.138909,-0.018854,0.379322,1.5215,0.486882,0.0291342,-0.161145,-0.52872,-1.53529,-0.967762,0,0,0,0,0,0,0,0,0,0,0,0,0,0,0,0,0,0,0,0,-0.103189,0.0207901,0.592622,1.45476,0.955406,0.107767,-0.186351,-0.523194,-1.48222,-1.16369,-0.132525,0.092622,-0.374227,0.219045,-0.0226593,0.614558,-0.00991821,0.394827,-0.08858,-0.330282,-0.0294807,-1.13422,0.0875878,0.421698,-0.0353401,0.310368,0.606043,-0.127261,-0.498238,-0.111513,-0.0431432,0.544891,-0.471386,-3.26334,0.122104,11.6719,-0.000814927,-0.0241126,-0.026126,0.00190277,-0.0249761,-0.0245498,0.999817,-0.000564575,-0.0120699,-0.0130464
2026-05-10 15:52:36.340651,inference,,,-0.162263,-0.018854,0.394979,1.5215,0.498116,0.0392674,-0.161145,-0.55523,-1.53529,-0.95131,0,0,0,0,0,0,0,0,0,0,0,0,0,0,0,0,0,0,0,0,-0.105478,0.0219345,0.589189,1.45552,0.955406,0.111581,-0.186351,-0.522431,-1.48222,-1.16712,-0.242389,0.151217,-0.46212,0.131149,-0.044632,0.50469,-0.0196844,0.131149,-0.0226593,-0.374227,0.087709,-1.21332,0.146182,0.544747,-0.0470588,0.327946,0.606043,0.0192261,-0.615427,-0.105653,0.0335558,0.607742,-0.371251,-2.52113,0.682366,10.652,-0.000527305,-0.0180724,-0.0302485,0.00219039,-0.0189359,-0.0286724,0.999817,-0.00038147,-0.00904858,-0.0151217
2026-05-10 15:52:36.346938,inference,,,-0.174344,-0.018854,0.41191,1.5215,0.514909,0.0424717,-0.161145,-0.565019,-1.53529,-0.936671,0,0,0,0,0,0,0,0,0,0,0,0,0,0,0,0,0,0,0,0,-0.107385,0.0234604,0.588426,1.45552,0.955406,0.114252,-0.186351,-0.521668,-1.4826,-1.16903,-0.308309,0.195162,-0.220416,-0.000686646,-0.000686646,0.460745,-0.0050354,0.131149,-0.044632,-0.3962,0.158023,-1.30561,0.0973535,0.638499,-0.0529182,0.39826,0.592859,0.107119,-0.638865,-0.0880752,0.0335558,0.607742,-0.371251,-2.52113,0.682366,10.652,-0.000527305,-0.0180724,-0.0302485,0.00219039,-0.0189359,-0.0286724,0.999817,-0.00038147,-0.00904858,-0.0151217
2026-05-10 15:52:36.353212,inference,,,-0.180086,-0.018854,0.430865,1.5215,0.536385,0.0401771,-0.161145,-0.555761,-1.53529,-0.92744,0,0,0,0,0,0,0,0,0,0,0,0,0,0,0,0,0,0,0,0,-0.10853,0.0253677,0.588807,1.45514,0.955406,0.119211,-0.186351,-0.519761,-1.48299,-1.17132,-0.220416,0.248874,-0.000686646,-0.0226593,-0.0226593,0.592586,-0.000152588,0.306936,-0.0226593,-0.374227,0.175601,-1.38471,-0.0491345,0.749828,-0.0763564,0.345526,0.592859,0.0778198,-0.638865,-0.0880752,0.0601875,0.556609,-0.0474043,-1.16599,1.27613,7.55382,-0.000143811,-0.0122241,-0.0316868,0.00257388,-0.0130876,-0.0301107,0.999847,-0.000167847,-0.00608838,-0.0158541
2026-05-10 15:52:36.359523,inference,,,-0.178909,-0.018854,0.443904,1.5215,0.547212,0.0402071,-0.161145,-0.541338,-1.53529,-0.929564,0,0,0,0,0,0,0,0,0,0,0,0,0,0,0,0,0,0,0,0,-0.110056,0.0276566,0.588807,1.45514,0.955406,0.122263,-0.186351,-0.518235,-1.48375,-1.17437,-0.220416,0.283055,-0.0226593,-0.000686646,-0.000686646,0.416799,0.00473022,0.131149,-0.154498,-0.352255,0.158023,-1.42426,-0.244449,0.743969,-0.0822158,0.339666,0.592859,0.116885,-0.597849,-0.0646369,0.0761664,0.290289,0.0601875,0.356736,0.418985,6.96006,0.00100667,-0.00858088,-0.0310157,0.00372437,-0.00944441,-0.0294396,0.999847,0.000442505,-0.00428778,-0.0154879
2026-05-10 15:52:36.365834,inference,,,-0.173299,-0.018854,0.447,1.5215,0.547075,0.0414895,-0.161145,-0.531257,-1.53529,-0.940169,0,0,0,0,0,0,0,0,0,0,0,0,0,0,0,0,0,0,0,0,-0.111581,0.028801,0.589189,1.45476,0.955787,0.124933,-0.186351,-0.518616,-1.48604,-1.17666,-0.242389,0.283055,0.0432587,-0.044632,0.0432587,0.438772,0.00473022,-0.0226593,-0.286337,-0.374227,0.204898,-1.43745,-0.303044,0.761547,-0.0822158,0.345526,0.592859,0.214541,-0.492378,-0.0646369,0.0761664,0.290289,0.0601875,0.356736,0.418985,6.96006,0.00100667,-0.00858088,-0.0310157,0.00372437,-0.00944441,-0.0294396,0.999847,0.000442505,-0.00428778,-0.0154879
2026-05-10 15:52:36.372114,inference,,,-0.165843,-0.018854,0.438027,1.5215,0.533652,0.0442739,-0.161145,-0.526794,-1.53529,-0.953656,0,0,0,0,0,0,0,0,0,0,0,0,0,0,0,0,0,0,0,0,-0.113489,0.0307083,0.589189,1.45552,0.955406,0.128366,-0.186351,-0.518235,-1.48833,-1.17857,-0.242389,0.243992,-0.000686646,0.0652313,-0.0226593,0.526662,0.00473022,0.0432587,-0.308309,-0.286337,0.222476,-1.43745,-0.332341,0.73811,-0.0822158,0.281071,0.592859,0.282903,-0.369329,-0.0880752,0.148609,0.0314253,-0.0165116,1.2043,-0.572224,8.96163,0.00215716,-0.00829326,-0.0311116,0.00487485,-0.00915678,-0.0295355,0.999847,0.00102234,-0.00416571,-0.0155489
2026-05-10 15:52:36.378369,inference,,,-0.161046,-0.018854,0.428329,1.5215,0.523808,0.0407152,-0.161145,-0.51964,-1.53529,-0.961516,0,0,0,0,0,0,0,0,0,0,0,0,0,0,0,0,0,0,0,0,-0.115015,0.0318527,0.588807,1.4559,0.955406,0.131418,-0.186351,-0.517472,-1.48985,-1.17971,-0.242389,0.185397,-0.0226593,0.0652313,-0.0226593,0.54864,-0.000152588,0.109177,-0.264364,-0.220416,0.234195,-1.37153,-0.342107,0.697093,-0.0763564,0.216617,0.592859,0.292668,-0.340032,-0.14667,-0.00266316,0.118777,0.125169,1.30007,-0.64405,10.1827,0.00215716,-0.00810152,-0.0300568,0.00487485,-0.00896504,-0.0284807,0.999878,0.00102234,-0.00407416,-0.0150301
2026-05-10 15:52:36.384602,inference,,,-0.155205,-0.018854,0.418222,1.5215,0.516715,0.0372362,-0.161145,-0.510737,-1.53529,-0.966729,0,0,0,0,0,0,0,0,0,0,0,0,0,0,0,0,0,0,0,0,-0.116922,0.0329971,0.588045,1.45743,0.955406,0.135995,-0.186351,-0.514802,-1.49176,-1.182,-0.242389,0.131686,-0.110553,0.153122,-0.000686646,0.570613,-0.000152588,0.328909,-0.264364,-0.264364,0.263493,-1.37153,-0.31281,0.632639,-0.0763564,0.128725,0.592859,0.185244,-0.334172,-0.164248,-0.00266316,0.118777,0.125169,1.30007,-0.64405,10.1827,0.00215716,-0.00810152,-0.0300568,0.00487485,-0.00896504,-0.0284807,0.999878,0.00102234,-0.00407416,-0.0150301
2026-05-10 15:52:36.390818,inference,,,-0.152526,-0.018854,0.409457,1.5215,0.506051,0.0391689,-0.161145,-0.511635,-1.53529,-0.971575,0,0,0,0,0,0,0,0,0,0,0,0,0,0,0,0,0,0,0,0,-0.116922,0.0333786,0.586137,1.45857,0.955406,0.138666,-0.186351,-0.513657,-1.4929,-1.18391,-0.0666046,0.0633252,-0.286337,0.153122,-0.0226593,0.372854,0.00473022,0.241018,-0.242389,-0.286337,0.169742,-1.29242,-0.224918,0.562325,-0.0763564,0.128725,0.592859,0.146182,-0.328313,-0.14667,-0.0314253,0.114516,0.0143811,0.955305,-1.15642,11.1404,0.00158192,-0.0074304,-0.0295774,0.00429961,-0.00829392,-0.0280013,0.999878,0.000747681,-0.00370795,-0.014786
